;FLAVOR:Marlin
;TIME:2958
;Filament used: 2.87656m
;Layer height: 0.2
;MINX:85.45
;MINY:79.325
;MINZ:0.2
;MAXX:134.55
;MAXY:140.675
;MAXZ:8.6
;Generated with Cura_SteamEngine main
M140 S60
M105
M190 S60
M104 S211
M105
M109 S211
M82 ;absolute extrusion mode
; -- START GCODE --
G21                     ;set units to millimetres
G90                     ;set to absolute positioning
M106 S0                 ;set fan speed to zero (turned off)
G28                     ;home all axis
M420 S1                 ;turn on mesh bed levelling if enabled in firmware
G92 E0                  ;zero the extruded length
G1 Z1 F1000             ;move up slightly
G1 X60.0 Z0 E9.0 F1000.0;intro line
G1 X100.0 E21.5 F1000.0 ;continue line
G92 E0                  ;zero the extruded length again
; -- end of START GCODE --
G92 E0
G92 E0
G1 F3000 E-5
;LAYER_COUNT:43
;LAYER:0
M107
;MESH:sd2iec_bottom.stl
G0 F3600 X87.887 Y82.093 Z0.2
;TYPE:WALL-INNER
G1 F3000 E0
G1 F1726.6 X88.478 Y81.586 E0.027
G1 F1674.4 X89.019 Y81.302 E0.04885
G1 F1469.4 X89.69 Y81.085 E0.07758
G1 F1545.1 X89.337 Y81.03 E0.09142
G1 F1751.8 X88.79 Y81.029 E0.11012
G1 F1764.7 X88.243 Y81.028 E0.12867
G1 F1782.2 X87.696 Y81.027 E0.14705
G1 F1795.5 X87.149 Y81.026 E0.16529
G1 F1800 X87.15 Y82.861 E0.22632
G1 F1535.2 X87.219 Y83.445 E0.24925
G1 F1431.4 X87.492 Y82.738 E0.28095
G1 F1596.5 X87.887 Y82.093 E0.30931
G0 F3600 X88.924 Y81.517
G0 X90.203 Y81.291
G0 X130.203 Y81.291
G0 X131.66 Y81.683
G1 F1800 X131.94 Y81.924 E0.3216
G1 F1710.2 X132.289 Y82.339 E0.34058
G1 F1592.9 X132.526 Y82.82 E0.36074
G1 F1522.2 X132.763 Y83.302 E0.38186
G1 F1565.2 X132.833 Y82.973 E0.39473
G1 F1722.5 X132.851 Y82.371 E0.41566
G1 F1800 X132.851 Y81.023 E0.46049
G1 F1795.5 X131.778 Y81.023 E0.49627
G1 F1777.8 X130.705 Y81.024 E0.53241
G1 F1555.1 X130.311 Y81.085 E0.54775
G1 F1515.8 X131.106 Y81.343 E0.58077
G1 F1734.9 X131.66 Y81.683 E0.6032
G0 F3600 X132.385 Y82.858
G0 X132.577 Y83.659
G0 X127.851 Y136.158
G1 F1800 X128.345 Y135.678 E0.62611
G1 X128.849 Y135.377 E0.64563
G1 X129.179 Y135.251 E0.65738
G1 X129.7 Y135.144 E0.67507
G1 X130.129 Y135.13 E0.68935
G1 X130.646 Y135.204 E0.70672
G1 X131.222 Y135.414 E0.72711
G1 X131.519 Y135.585 E0.73851
G1 X131.864 Y135.853 E0.75304
G1 F1714.3 X132.286 Y136.329 E0.77525
G1 F1596.5 X132.524 Y136.816 E0.79558
G1 F1525.4 X132.763 Y137.303 E0.81687
G1 F1568.6 X132.833 Y136.972 E0.82978
G1 F1722.5 X132.851 Y136.37 E0.85072
G1 F1800 X132.851 Y84.888 E2.56301
G1 F1515.8 X132.776 Y84.407 E2.58224
G1 X132.493 Y85.03 E2.60927
G1 F1800 X132.215 Y85.498 E2.62737
G1 X131.864 Y85.896 E2.64502
G1 X131.522 Y86.162 E2.65943
G1 X131.223 Y86.335 E2.67092
G1 X130.646 Y86.546 E2.69136
G1 X130.129 Y86.62 E2.70873
G1 X129.7 Y86.606 E2.723
G1 X129.233 Y86.518 E2.73881
G1 X128.594 Y86.249 E2.76187
G1 X127.987 Y85.742 E2.78817
G1 X127.617 Y85.249 E2.80868
G1 X127.352 Y84.628 E2.83113
G1 X127.262 Y84.108 E2.84868
G1 X127.287 Y83.45 E2.87059
G1 X127.457 Y82.796 E2.89306
G1 X127.804 Y82.229 E2.91517
G1 X127.977 Y82.016 E2.9243
G1 X128.478 Y81.586 E2.94626
G1 F1674.4 X129.003 Y81.307 E2.96751
G1 F1469.4 X129.69 Y81.085 E2.99693
G1 F1555.1 X129.298 Y81.024 E3.0122
G1 F1777.8 X127.982 Y81.024 E3.05652
G1 X126.666 Y81.024 E3.10084
G1 X125.35 Y81.024 E3.14516
G1 X124.034 Y81.024 E3.18947
G1 X122.718 Y81.024 E3.23379
G1 F1782.2 X121.402 Y81.024 E3.278
G1 X120.086 Y81.024 E3.32221
G1 X118.77 Y81.024 E3.36641
G1 X117.454 Y81.024 E3.41062
G1 X116.138 Y81.024 E3.45483
G1 F1786.6 X114.822 Y81.024 E3.49893
G1 X113.506 Y81.024 E3.54303
G1 X112.19 Y81.024 E3.58713
G1 X110.874 Y81.024 E3.63122
G1 X109.558 Y81.025 E3.67532
G1 F1791 X108.242 Y81.025 E3.71931
G1 X106.926 Y81.025 E3.7633
G1 X105.61 Y81.025 E3.80729
G1 X104.294 Y81.025 E3.85128
G1 F1795.5 X102.978 Y81.025 E3.89516
G1 X101.662 Y81.025 E3.93904
G1 X100.346 Y81.025 E3.98292
G1 X99.03 Y81.025 E4.0268
G1 X97.714 Y81.025 E4.07068
G1 F1800 X96.398 Y81.025 E4.11445
G1 X95.082 Y81.025 E4.15822
G1 X93.766 Y81.025 E4.20199
G1 X92.45 Y81.025 E4.24576
G1 X91.134 Y81.025 E4.28953
G1 F1469.4 X90.661 Y81.116 E4.30916
G1 F1345.8 X91.465 Y81.543 E4.34965
G1 F1618 X91.864 Y81.853 E4.36835
G1 F1800 X92.297 Y82.342 E4.39007
G1 X92.607 Y83.025 E4.41502
G1 X92.686 Y83.292 E4.42428
G1 X92.746 Y83.868 E4.44354
G1 X92.672 Y84.517 E4.46527
G1 X92.534 Y84.947 E4.48029
G1 X92.289 Y85.401 E4.49745
G1 X91.962 Y85.803 E4.51468
G1 X91.6 Y86.112 E4.53051
G1 X91.152 Y86.372 E4.54774
G1 X90.819 Y86.499 E4.55959
G1 X90.301 Y86.606 E4.57719
G1 X89.871 Y86.62 E4.5915
G1 X89.353 Y86.546 E4.6089
G1 X88.734 Y86.312 E4.63091
G1 X88.483 Y86.159 E4.64069
G1 X88.019 Y85.77 E4.66083
G1 F1710.2 X87.649 Y85.31 E4.68149
G1 F1555.1 X87.239 Y84.479 E4.71717
G1 F1519 X87.181 Y84.743 E4.72782
G1 F1666.7 X87.15 Y85.257 E4.74632
G1 F1800 X87.15 Y136.861 E6.46267
G1 F1535.2 X87.219 Y137.445 E6.48561
G1 F1431.4 X87.492 Y136.739 E6.51726
G1 F1659 X87.803 Y136.229 E6.53882
G1 F1800 X88.296 Y135.72 E6.56239
G1 X88.779 Y135.413 E6.58142
G1 X89.179 Y135.251 E6.59578
G1 X89.7 Y135.144 E6.61347
G1 X90.129 Y135.13 E6.62774
G1 X90.646 Y135.204 E6.64511
G1 X91.151 Y135.377 E6.66287
G1 X91.597 Y135.635 E6.68001
G1 X91.904 Y135.889 E6.69326
G1 X92.292 Y136.345 E6.71317
G1 X92.643 Y137.102 E6.74093
G1 X92.758 Y137.76 E6.76314
G1 X92.672 Y138.517 E6.78848
G1 X92.494 Y139.031 E6.80657
G1 X92.216 Y139.499 E6.82468
G1 X91.885 Y139.875 E6.84134
G1 X128.143 Y139.874 E8.04729
G1 X127.849 Y139.588 E8.06093
G1 X127.58 Y139.171 E8.07743
G1 X127.325 Y138.564 E8.09933
G1 X127.254 Y137.884 E8.12207
G1 X127.328 Y137.233 E8.14386
G1 X127.491 Y136.742 E8.16107
G1 X127.851 Y136.158 E8.18389
G0 F3600 X128.924 Y135.517
G0 X130.203 Y135.291
G0 X131.503 Y135.763
G0 X132.143 Y136.414
G0 X132.515 Y137.245
G0 X132.545 Y138.378
G0 X132.013 Y139.822
G1 F1420.1 X132.798 Y139.822 E8.21698
G1 X132.798 Y138.888 E8.25636
G1 F1363.6 X132.776 Y138.407 E8.2775
G1 X132.539 Y139.056 E8.30783
G1 F1420.1 X132.331 Y139.431 E8.32591
G1 X132.013 Y139.822 E8.34715
G0 F3600 X132.545 Y138.378
G0 X132.515 Y137.245
G0 X132.143 Y136.414
G0 X131.503 Y135.763
G0 X130.692 Y135.376
G0 X89.797 Y135.291
G0 X88.924 Y135.517
G0 X88.004 Y136.214
G0 X87.487 Y137.271
G0 X87.203 Y139.822
G1 F1420.1 X87.997 Y139.821 E8.38063
G1 X87.806 Y139.619 E8.39235
G1 X87.531 Y139.191 E8.41379
G1 F1398.1 X87.326 Y138.72 E8.43579
G1 F1323.5 X87.233 Y138.469 E8.4479
G1 X87.211 Y138.743 E8.46033
G1 F1387.3 X87.207 Y139.283 E8.48364
G1 F1409 X87.203 Y139.823 E8.50658
G0 F3600 X87.455 Y137.372
G0 X87.991 Y136.143
G0 X88.192 Y136.36
G1 F1800 X88.677 Y135.933 E8.52807
G1 X89.07 Y135.717 E8.54299
G1 X89.422 Y135.598 E8.55535
G1 X89.768 Y135.538 E8.56703
G1 X90.232 Y135.538 E8.58246
G1 X90.681 Y135.626 E8.59768
G1 X90.979 Y135.738 E8.60827
G1 X91.366 Y135.962 E8.62314
G1 X91.632 Y136.182 E8.63462
G1 X91.964 Y136.576 E8.65176
G1 X92.27 Y137.261 E8.67671
G1 X92.347 Y137.837 E8.69604
G1 X92.289 Y138.4 E8.71486
G1 X92.142 Y138.839 E8.73026
G1 X91.975 Y139.147 E8.74191
G1 X91.686 Y139.511 E8.75737
G1 X91.406 Y139.758 E8.76979
G1 X91.023 Y139.989 E8.78467
G1 F1666.7 X90.237 Y140.243 E8.81434
G1 F1655.2 X90.587 Y140.275 E8.82705
G1 F1773.4 X91.712 Y140.275 E8.86503
G1 X92.837 Y140.275 E8.90301
G1 X93.962 Y140.275 E8.94099
G1 X95.087 Y140.275 E8.97897
G1 X96.212 Y140.275 E9.01695
G1 F1777.8 X97.337 Y140.275 E9.05483
G1 X98.462 Y140.275 E9.09272
G1 X99.587 Y140.275 E9.1306
G1 X100.712 Y140.275 E9.16849
G1 X101.837 Y140.275 E9.20637
G1 F1782.2 X102.962 Y140.275 E9.24416
G1 X104.087 Y140.275 E9.28196
G1 X105.212 Y140.275 E9.31975
G1 X106.337 Y140.275 E9.35754
G1 X107.462 Y140.275 E9.39533
G1 F1786.6 X108.587 Y140.275 E9.43303
G1 X109.712 Y140.275 E9.47073
G1 X110.837 Y140.275 E9.50843
G1 X111.962 Y140.275 E9.54613
G1 F1791 X113.087 Y140.275 E9.58373
G1 X114.212 Y140.275 E9.62133
G1 X115.337 Y140.275 E9.65894
G1 X116.462 Y140.275 E9.69654
G1 X117.587 Y140.275 E9.73415
G1 F1795.5 X118.712 Y140.275 E9.77166
G1 X119.837 Y140.275 E9.80917
G1 X120.962 Y140.275 E9.84668
G1 X122.087 Y140.275 E9.88419
G1 X123.212 Y140.275 E9.9217
G1 F1800 X124.337 Y140.275 E9.95912
G1 X125.462 Y140.275 E9.99654
G1 X126.587 Y140.275 E10.03396
G1 X127.712 Y140.275 E10.07138
G1 X128.837 Y140.274 E10.10879
G1 F1558.4 X129.411 Y140.213 E10.13097
G1 F1460.4 X128.783 Y139.888 E10.15995
G1 F1614.3 X128.211 Y139.409 E10.18762
G1 F1734.9 X127.949 Y139.016 E10.20392
G1 F1800 X127.718 Y138.466 E10.22376
G1 X127.653 Y137.914 E10.24225
G1 X127.711 Y137.35 E10.26111
G1 X127.841 Y136.943 E10.27532
G1 X128.188 Y136.365 E10.29774
G1 X128.633 Y135.961 E10.31773
G1 X128.979 Y135.76 E10.33104
G1 X129.317 Y135.627 E10.34312
G1 X129.768 Y135.538 E10.35841
G1 X130.129 Y135.53 E10.37042
G1 X130.577 Y135.598 E10.38549
G1 X131.022 Y135.76 E10.40124
G1 X131.319 Y135.932 E10.41266
G1 X131.608 Y136.16 E10.4249
G1 X131.958 Y136.562 E10.44263
G1 X132.28 Y137.275 E10.46865
G1 X132.349 Y137.79 E10.48593
G1 X132.308 Y138.326 E10.50381
G1 X132.188 Y138.729 E10.5178
G1 X131.951 Y139.185 E10.53489
G1 X131.686 Y139.511 E10.54886
G1 X131.406 Y139.758 E10.56128
G1 X131.023 Y139.989 E10.57616
G1 F1666.7 X130.237 Y140.243 E10.60583
G1 F1655.2 X130.587 Y140.275 E10.61854
G1 F1777.8 X131.475 Y140.275 E10.64845
G1 F1786.6 X132.363 Y140.275 E10.6782
G1 F1795.5 X133.251 Y140.275 E10.70781
G1 F1800 X133.251 Y80.623 E12.69184
G1 X86.749 Y80.625 E14.23851
G1 X86.75 Y140.275 E16.22247
G1 X88.824 Y140.274 E16.29146
G1 F1558.4 X89.411 Y140.213 E16.31413
G1 F1460.4 X88.783 Y139.888 E16.34311
G1 F1614.3 X88.211 Y139.409 E16.37078
G1 F1734.9 X87.949 Y139.016 E16.38708
G1 F1804.5 X87.72 Y138.463 E16.40694
G1 X87.652 Y137.961 E16.42375
G1 F1800 X87.686 Y137.48 E16.43978
G1 X87.83 Y136.953 E16.45795
G1 X88.192 Y136.36 E16.48106
G0 F3600 X87.991 Y136.143
G0 X87.389 Y83.457
G0 X87.686 Y83.48
G1 F1800 X87.83 Y82.953 E16.49923
G1 X88.193 Y82.358 E16.52241
G1 X88.677 Y81.933 E16.54384
G1 X88.978 Y81.76 E16.55538
G1 X89.317 Y81.626 E16.56751
G1 X89.768 Y81.538 E16.58279
G1 X90.233 Y81.538 E16.59826
G1 X90.681 Y81.626 E16.61344
G1 X91.022 Y81.76 E16.62563
G1 X91.319 Y81.931 E16.63703
G1 X91.608 Y82.16 E16.64929
G1 X91.959 Y82.564 E16.66709
G1 X92.243 Y83.19 E16.68996
G1 X92.342 Y83.703 E16.70733
G1 X92.347 Y83.837 E16.71179
G1 X92.289 Y84.4 E16.73062
G1 X92.166 Y84.789 E16.74419
G1 X91.93 Y85.216 E16.76041
G1 X91.667 Y85.533 E16.77411
G1 X91.368 Y85.786 E16.78714
G1 X91.023 Y85.989 E16.80045
G1 X90.681 Y86.124 E16.81268
G1 X90.232 Y86.212 E16.8279
G1 X89.871 Y86.22 E16.83991
G1 X89.421 Y86.152 E16.85505
G1 X88.814 Y85.914 E16.87673
G1 X88.211 Y85.409 E16.90289
G1 X87.949 Y85.016 E16.9186
G1 X87.719 Y84.469 E16.93834
G1 X87.652 Y83.961 E16.95538
G1 X87.686 Y83.48 E16.97142
G0 F3600 X87.389 Y83.457
G0 X88.004 Y82.214
G0 X89.307 Y81.376
G0 X127.389 Y83.457
G0 X127.686 Y83.48
G1 F1800 X127.83 Y82.953 E16.98959
G1 X128.193 Y82.358 E17.01277
G1 X128.677 Y81.933 E17.0342
G1 X128.978 Y81.76 E17.04574
G1 X129.317 Y81.626 E17.05787
G1 X129.768 Y81.538 E17.07315
G1 X130.233 Y81.538 E17.08862
G1 X130.681 Y81.626 E17.1038
G1 X131.022 Y81.76 E17.11599
G1 X131.319 Y81.931 E17.12739
G1 X131.608 Y82.16 E17.13965
G1 F1804.5 X131.957 Y82.564 E17.15736
G1 X132.242 Y83.191 E17.18021
G1 X132.349 Y83.79 E17.2004
G1 F1800 X132.308 Y84.326 E17.21828
G1 X132.188 Y84.729 E17.23226
G1 X131.974 Y85.146 E17.24785
G1 X131.608 Y85.589 E17.26697
G1 X131.322 Y85.816 E17.27911
G1 X131.023 Y85.989 E17.2906
G1 X130.577 Y86.152 E17.30639
G1 X130.129 Y86.22 E17.32147
G1 X129.768 Y86.212 E17.33348
G1 X129.349 Y86.135 E17.34764
G1 X128.806 Y85.905 E17.36726
G1 X128.219 Y85.409 E17.39282
G1 X127.971 Y85.063 E17.40698
G1 X127.727 Y84.477 E17.42809
G1 X127.658 Y84.049 E17.44251
G1 X127.686 Y83.48 E17.46146
G0 F3600 X128.111 Y84.365
;TYPE:WALL-OUTER
G1 F1800 X128.052 Y83.944 E17.4756
G1 X128.093 Y83.467 E17.49152
G1 X128.201 Y83.114 E17.5038
G1 X128.502 Y82.621 E17.52301
G1 X128.84 Y82.307 E17.53835
G1 X129.208 Y82.093 E17.55251
G1 X129.49 Y81.992 E17.56248
G1 X129.836 Y81.932 E17.57416
G1 X130.164 Y81.932 E17.58506
G1 X130.543 Y82.002 E17.59788
G1 X130.822 Y82.107 E17.6078
G1 X131.148 Y82.298 E17.62037
G1 X131.367 Y82.482 E17.62988
G1 F1804.5 X131.618 Y82.783 E17.64288
G1 X131.89 Y83.383 E17.66474
G1 X131.949 Y83.79 E17.67838
G1 F1800 X131.913 Y84.258 E17.69399
G1 X131.806 Y84.611 E17.70626
G1 X131.623 Y84.955 E17.71922
G1 X131.352 Y85.281 E17.73332
G1 X131.122 Y85.47 E17.74322
G1 X130.823 Y85.643 E17.75471
G1 X130.509 Y85.758 E17.76583
G1 X130.129 Y85.82 E17.77864
G1 X129.836 Y85.818 E17.78839
G1 X129.445 Y85.745 E17.80162
G1 X129.02 Y85.565 E17.81697
G1 X128.513 Y85.138 E17.83901
G1 X128.325 Y84.877 E17.84971
G1 X128.111 Y84.365 E17.86817
G0 F3600 X128.084 Y84.167
G0 X127.389 Y84.272
G0 X127.455 Y83.372
G0 X128.004 Y82.214
G0 X129.69 Y81.085
;TYPE:WALL-INNER
G1 F1384.6 X130.311 Y81.085 E17.89502
G0 F3600 X131.503 Y81.763
G0 X132.767 Y83.281
G1 F1345.8 X132.8 Y83.79 E17.91771
G1 F1368.8 X132.776 Y84.407 E17.94472
G0 F3600 X131.818 Y85.724
G0 X131.076 Y86.234
G0 X129.887 Y86.45
G0 X90.661 Y81.116
G1 F1309.1 X90.311 Y81.085 E17.96079
G1 F1384.6 X89.69 Y81.085 E17.98764
G0 F3600 X88.476 Y81.775
G0 X87.219 Y83.445
G1 F1382 X87.2 Y83.961 E18.01001
G1 F1340.8 X87.235 Y84.496 E18.03394
G0 F3600 X88.106 Y84.344
;TYPE:WALL-OUTER
G1 F1800 X88.052 Y83.944 E18.04737
G1 X88.085 Y83.51 E18.06185
G1 X88.2 Y83.115 E18.07553
G1 X88.502 Y82.621 E18.09479
G1 X88.84 Y82.307 E18.11013
G1 X89.208 Y82.093 E18.12429
G1 X89.49 Y81.992 E18.13425
G1 X89.836 Y81.932 E18.14593
G1 X90.164 Y81.932 E18.15684
G1 X90.509 Y81.992 E18.16849
G1 X90.822 Y82.107 E18.17958
G1 X91.148 Y82.298 E18.19215
G1 X91.352 Y82.468 E18.20098
G1 X91.63 Y82.808 E18.21559
G1 X91.879 Y83.356 E18.23561
G1 X91.946 Y83.761 E18.24926
G1 X91.907 Y84.282 E18.26664
G1 X91.806 Y84.611 E18.27808
G1 X91.616 Y84.968 E18.29153
G1 X91.372 Y85.263 E18.30427
G1 X91.137 Y85.46 E18.31447
G1 X90.823 Y85.643 E18.32655
G1 X90.509 Y85.758 E18.33768
G1 X90.164 Y85.818 E18.34932
G1 X89.836 Y85.818 E18.36023
G1 X89.445 Y85.745 E18.37346
G1 X89.021 Y85.565 E18.38878
G1 X88.511 Y85.138 E18.41091
G1 X88.318 Y84.861 E18.42213
G1 X88.106 Y84.344 E18.44072
G0 F3600 X88.08 Y84.146
G0 X87.386 Y84.251
G0 X86.619 Y80.495
G0 X86.349 Y80.225
G1 F1800 X86.35 Y140.675 E20.45129
G1 X133.651 Y140.675 E22.02453
G1 X133.651 Y80.223 E24.03517
G1 X86.349 Y80.225 E25.60844
G0 F3600 X86.349 Y80.425
G0 X87.019 Y80.895
G0 X87.219 Y137.445
;TYPE:WALL-INNER
G1 F1382 X87.2 Y137.961 E25.63081
G1 F1348.3 X87.233 Y138.469 E25.65342
G0 F3600 X88.109 Y138.361
;TYPE:WALL-OUTER
G1 F1800 X88.052 Y137.944 E25.66742
G1 X88.085 Y137.51 E25.68189
G1 X88.2 Y137.115 E25.69558
G1 X88.502 Y136.621 E25.71483
G1 X88.84 Y136.307 E25.73018
G1 X89.208 Y136.093 E25.74434
G1 X89.49 Y135.992 E25.7543
G1 X89.836 Y135.932 E25.76598
G1 X90.164 Y135.932 E25.77689
G1 X90.509 Y135.992 E25.78854
G1 X90.808 Y136.1 E25.79911
G1 X91.135 Y136.288 E25.81165
G1 X91.36 Y136.475 E25.82139
G1 X91.61 Y136.774 E25.83435
G1 X91.888 Y137.379 E25.85649
G1 X91.948 Y137.807 E25.87087
G1 X91.907 Y138.282 E25.88673
G1 X91.806 Y138.611 E25.89817
G1 X91.623 Y138.955 E25.91113
G1 X91.352 Y139.281 E25.92523
G1 X91.122 Y139.47 E25.93513
G1 X90.823 Y139.643 E25.94662
G1 X90.544 Y139.748 E25.95654
G1 X90.164 Y139.818 E25.96939
G1 X89.836 Y139.818 E25.9803
G1 X89.489 Y139.758 E25.99201
G1 X89.021 Y139.565 E26.00885
G1 X88.512 Y139.139 E26.03092
G1 X88.34 Y138.901 E26.04069
G1 X88.109 Y138.361 E26.06023
G0 F3600 X88.082 Y138.163
G0 X87.388 Y138.268
G0 X87.455 Y137.372
G0 X88.004 Y136.214
G0 X88.924 Y135.517
G0 X90.032 Y135.308
G0 X127.356 Y137.891
G0 X128.052 Y137.944
G1 F1800 X128.093 Y137.467 E26.07615
G1 X128.204 Y137.111 E26.08855
G1 X128.496 Y136.631 E26.10724
G1 X128.85 Y136.298 E26.1234
G1 X129.192 Y136.1 E26.13655
G1 X129.49 Y135.992 E26.14709
G1 X129.836 Y135.932 E26.15877
G1 X130.129 Y135.93 E26.16851
G1 X130.509 Y135.992 E26.18132
G1 X130.822 Y136.107 E26.19241
G1 X131.119 Y136.278 E26.20381
G1 X131.352 Y136.468 E26.21381
G1 X131.63 Y136.808 E26.22842
G1 X131.879 Y137.356 E26.24844
G1 X131.949 Y137.79 E26.26306
G1 X131.913 Y138.258 E26.27867
