;FLAVOR:RepRap
;TIME:5019
;Filament used: 4.46325m
;Layer height: 0.2
;Generated with Cura_SteamEngine 2.5.0-twosilly
M190 S50
M104 S210
M109 S210
G28 ;Home
G1 Z15.0 F6000 ;Move the platform down 15mm
;Prime the extruder
G92 E0
G1 F200 E10
G92 E0
;LAYER_COUNT:59
;LAYER:0
M107
G0 F2700 X76.583 Y82.55 Z0.3
;TYPE:SKIRT
G1 F1200 X76.985 Y82.195 E0.02669
G1 X77.435 Y81.903 E0.05339
G1 X77.923 Y81.682 E0.08005
G1 X78.439 Y81.535 E0.10675
G1 X79.161 Y81.462 E0.14286
G1 X139.878 Y81.462 E3.16447
G1 X140.413 Y81.502 E3.19117
G1 X140.936 Y81.621 E3.21786
G1 X141.435 Y81.816 E3.24452
G1 X141.9 Y82.084 E3.27123
G1 X142.193 Y82.305 E3.2895
G1 X142.806 Y82.82 E3.32934
G1 X143.214 Y83.223 E3.35788
G1 X143.781 Y83.879 E3.40103
G1 X144.1 Y84.309 E3.42767
G1 X144.352 Y84.783 E3.45439
G1 X144.531 Y85.288 E3.48105
G1 X144.633 Y85.815 E3.50777
G1 X144.657 Y86.232 E3.52855
G1 X144.663 Y133.752 E5.89341
G1 X144.623 Y134.286 E5.92006
G1 X144.504 Y134.809 E5.94675
G1 X144.367 Y135.18 E5.96643
G1 X144.303 Y135.328 E5.97446
G1 X144.054 Y135.803 E6.00115
G1 X143.738 Y136.236 E6.02782
G1 X143.547 Y136.442 E6.0418
G1 X142.572 Y137.419 E6.11049
G1 X142.166 Y137.77 E6.1372
G1 X141.713 Y138.056 E6.16386
G1 X141.468 Y138.174 E6.1774
G1 X141.324 Y138.237 E6.18522
G1 X140.818 Y138.415 E6.21191
G1 X140.291 Y138.516 E6.23862
G1 X139.881 Y138.539 E6.25905
G1 X79.168 Y138.539 E9.28046
G1 X78.633 Y138.499 E9.30716
G1 X78.11 Y138.38 E9.33385
G1 X77.611 Y138.185 E9.36052
G1 X77.146 Y137.917 E9.38723
G1 X76.645 Y137.507 E9.41944
G1 X76.412 Y137.278 E9.4357
G1 X76.059 Y136.875 E9.46236
G1 X75.769 Y136.423 E9.48909
G1 X75.55 Y135.934 E9.51575
G1 X75.406 Y135.417 E9.54246
G1 X75.337 Y134.629 E9.58183
G1 X75.406 Y131.588 E9.7332
G1 X75.333 Y95.116 E11.54825
G1 X75.334 Y95.02 E11.55303
G1 X75.412 Y91.842 E11.71123
G1 X75.336 Y85.335 E12.03508
G1 X75.37 Y84.8 E12.06176
G1 X75.483 Y84.276 E12.08843
G1 X75.672 Y83.774 E12.11513
G1 X75.934 Y83.306 E12.14182
G1 X76.357 Y82.782 E12.17533
G1 X76.583 Y82.55 E12.19145
G0 F2700 X76.869 Y82.828
G1 F1200 X77.249 Y82.495 E12.21659
G1 X77.677 Y82.226 E12.24175
G1 X78.142 Y82.028 E12.2669
G1 X78.633 Y81.905 E12.29209
G1 X79.161 Y81.861 E12.31846
G1 X139.878 Y81.861 E15.34007
G1 X140.382 Y81.901 E15.36523
G1 X140.873 Y82.02 E15.39037
G1 X141.34 Y82.214 E15.41554
G1 X141.936 Y82.611 E15.45118
G1 X142.549 Y83.126 E15.49102
G1 X142.912 Y83.483 E15.51636
G1 X143.479 Y84.139 E15.55951
G1 X143.778 Y84.547 E15.58468
G1 X144.01 Y84.996 E15.60983
G1 X144.168 Y85.477 E15.63503
G1 X144.248 Y85.976 E15.66018
G1 X144.258 Y86.232 E15.67293
G1 X144.264 Y133.752 E18.03778
G1 X144.224 Y134.256 E18.06294
G1 X144.105 Y134.747 E18.08809
G1 X144.001 Y135.022 E18.10272
G1 X143.937 Y135.17 E18.11074
G1 X143.7 Y135.617 E18.13592
G1 X143.265 Y136.16 E18.17055
G1 X142.29 Y137.137 E18.23924
G1 X141.906 Y137.466 E18.2644
G1 X141.308 Y137.809 E18.29871
G1 X141.164 Y137.872 E18.30653
G1 X140.686 Y138.037 E18.33169
G1 X140.188 Y138.125 E18.35686
G1 X139.881 Y138.14 E18.37216
G1 X79.168 Y138.14 E21.39357
G1 X78.664 Y138.1 E21.41873
G1 X78.173 Y137.981 E21.44387
G1 X77.706 Y137.787 E21.46904
G1 X77.276 Y137.521 E21.4942
G1 X76.925 Y137.222 E21.51715
G1 X76.692 Y136.993 E21.53341
G1 X76.36 Y136.611 E21.55859
G1 X76.093 Y136.182 E21.58374
G1 X75.897 Y135.716 E21.6089
G1 X75.777 Y135.225 E21.63405
G1 X75.736 Y134.639 E21.66329
G1 X75.805 Y131.597 E21.81471
G1 X75.732 Y95.115 E23.63026
G1 X75.733 Y95.03 E23.63449
G1 X75.811 Y91.847 E23.79294
G1 X75.735 Y85.331 E24.11723
G1 X75.769 Y84.826 E24.14242
G1 X75.882 Y84.333 E24.16759
G1 X76.072 Y83.865 E24.19273
G1 X76.332 Y83.431 E24.21791
G1 X76.643 Y83.06 E24.242
G1 X76.869 Y82.828 E24.25812
G0 F2700 X79.242 Y85.249
;TYPE:SUPPORT
G1 F1200 X139.839 Y85.249 E27.27376
G1 X139.912 Y85.279 E27.27768
G1 X140.846 Y86.213 E27.34342
G1 X140.876 Y86.286 E27.34735
G1 X140.876 Y133.714 E29.70762
G1 X140.846 Y133.787 E29.71155
G1 X139.912 Y134.721 E29.77728
G1 X139.839 Y134.751 E29.78121
G1 X79.242 Y134.751 E32.79685
G1 X79.124 Y134.633 E32.80515
G1 X79.126 Y134.149 E32.82924
G1 X81.445 Y134.149 E32.94465
G1 X81.874 Y133.857 E32.97047
G1 X82.034 Y133.449 E32.99228
G1 X82.23 Y133.449 E33.00204
G1 X82.398 Y133.86 E33.02413
G1 X82.827 Y134.149 E33.04988
G1 X86.627 Y134.149 E33.23898
G1 X87.025 Y133.751 E33.26699
G1 X87.023 Y128.219 E33.5423
G1 X87.02 Y128.16 E33.54524
G1 X87.02 Y128.121 E33.54718
G1 X87.005 Y127.925 E33.55696
G1 X86.984 Y127.789 E33.56381
G1 X86.98 Y127.754 E33.56556
G1 X86.938 Y127.547 E33.57607
G1 X86.936 Y127.54 E33.57644
G1 X86.812 Y126.947 E33.60659
G1 X86.594 Y126.731 E33.62186
G1 X86.588 Y126.72 E33.62248
G1 X86.408 Y126.456 E33.63838
G1 X86.221 Y126.246 E33.65238
G1 X86.201 Y126.227 E33.65375
G1 X86.168 Y126.191 E33.65618
G1 X86.114 Y126.143 E33.65977
G1 X85.997 Y126.027 E33.66797
G1 X85.898 Y125.959 E33.67395
G1 X85.888 Y125.951 E33.67459
G1 X85.752 Y125.845 E33.68317
G1 X85.501 Y125.7 E33.6976
G1 X85.364 Y125.63 E33.70525
G1 X85.069 Y125.498 E33.72133
G1 X84.844 Y125.442 E33.73287
G1 X84.645 Y125.38 E33.74325
G1 X84.433 Y125.367 E33.75382
G1 X84.413 Y125.364 E33.75482
G1 X84.285 Y125.357 E33.7612
G1 X84.191 Y125.351 E33.76589
G1 X79.124 Y125.351 E34.01805
G1 X79.131 Y94.642 E35.5463
G1 X79.325 Y94.653 E35.55597
G1 X80.576 Y94.648 E35.61823
G1 X82.62 Y94.647 E35.71995
G1 X84.263 Y94.647 E35.80171
G1 X84.406 Y94.633 E35.80886
G1 X84.607 Y94.617 E35.8189
G1 X84.717 Y94.587 E35.82457
G1 X84.796 Y94.573 E35.82856
G1 X85.172 Y94.461 E35.84809
G1 X85.281 Y94.407 E35.85414
G1 X85.381 Y94.365 E35.85954
G1 X85.489 Y94.307 E35.86564
G1 X85.617 Y94.239 E35.87285
G1 X85.873 Y94.07 E35.88812
G1 X86.011 Y93.95 E35.89722
G1 X86.102 Y93.871 E35.90322
G1 X86.286 Y93.684 E35.91627
G1 X86.455 Y93.484 E35.9293
G1 X86.532 Y93.361 E35.93653
G1 X86.611 Y93.246 E35.94347
G1 X86.629 Y93.213 E35.94534
G1 X86.702 Y93.104 E35.95187
G1 X86.856 Y92.727 E35.97213
G1 X86.942 Y92.443 E35.9869
G1 X86.963 Y92.338 E35.99223
G1 X87 Y92.177 E36.00045
G1 X87.022 Y91.864 E36.01607
G1 X87.024 Y86.249 E36.2955
G1 X86.626 Y85.851 E36.32351
G1 X82.817 Y85.851 E36.51307
G1 X82.387 Y86.141 E36.53888
G1 X82.222 Y86.551 E36.56087
G1 X82.039 Y86.551 E36.56998
G1 X81.881 Y86.145 E36.59166
G1 X81.453 Y85.851 E36.6175
G1 X79.124 Y85.851 E36.7334
G1 X79.124 Y85.367 E36.75749
G1 X79.242 Y85.249 E36.7658
G1 F3600 E30.2658
G0 F2700 X86.282 Y86.089
G0 X100.126 Y88.149
G1 F3600 E36.7658
G1 F1200 X100.126 Y108.351 E37.77116
G1 X100.524 Y108.749 E37.79917
G1 X105.226 Y108.749 E38.03317
G1 X105.624 Y108.351 E38.06118
G1 X105.624 Y88.149 E39.06654
G1 X105.226 Y87.751 E39.09455
G1 X100.524 Y87.751 E39.32855
G1 X100.126 Y88.149 E39.35656
G1 F3600 E32.85656
G0 F2700 X131.711 Y86.786
G0 X132.176 Y86.785
G1 F3600 E39.35656
G1 F1200 X132.178 Y91.853 E39.60877
G1 X132.18 Y91.873 E39.60977
G1 X132.199 Y92.074 E39.61982
G1 X132.203 Y92.09 E39.62064
G1 X132.239 Y92.273 E39.62992
G1 X132.243 Y92.292 E39.63089
G1 X132.299 Y92.473 E39.64032
G1 X132.305 Y92.492 E39.64131
G1 X132.386 Y92.688 E39.65186
G1 X132.394 Y92.704 E39.65275
G1 X132.481 Y92.867 E39.66195
G1 X132.491 Y92.885 E39.66297
G1 X132.602 Y93.052 E39.67295
G1 X132.614 Y93.068 E39.67395
G1 X132.739 Y93.22 E39.68374
G1 X132.905 Y93.386 E39.69542
G1 X133.057 Y93.511 E39.70522
G1 X133.073 Y93.523 E39.70621
G1 X133.24 Y93.634 E39.71619
G1 X133.258 Y93.644 E39.71721
G1 X133.421 Y93.731 E39.72641
G1 X133.437 Y93.739 E39.7273
G1 X133.633 Y93.821 E39.73787
G1 X133.653 Y93.827 E39.73891
G1 X133.834 Y93.882 E39.74833
G1 X133.852 Y93.886 E39.74924
G1 X134.035 Y93.922 E39.75853
G1 X134.052 Y93.926 E39.75939
G1 X134.253 Y93.945 E39.76944
G1 X134.273 Y93.947 E39.77044
G1 X139.34 Y93.949 E40.0226
G1 X139.574 Y93.715 E40.03907
G1 X139.574 Y86.785 E40.38395
G1 X139.34 Y86.551 E40.40042
G1 X132.41 Y86.551 E40.74529
G1 X132.176 Y86.785 E40.76176
G1 F3600 E34.26176
G0 F2700 X131.711 Y86.786
G0 X131.746 Y92.181
G0 X134.227 Y125.59
G0 X134.272 Y126.053
G1 F3600 E40.76176
G1 F1200 X134.252 Y126.055 E40.76276
G1 X134.051 Y126.074 E40.77281
G1 X134.035 Y126.078 E40.77363
G1 X133.852 Y126.114 E40.78291
G1 X133.833 Y126.118 E40.78388
G1 X133.652 Y126.174 E40.7933
G1 X133.633 Y126.18 E40.7943
G1 X133.437 Y126.261 E40.80485
G1 X133.421 Y126.269 E40.80574
G1 X133.258 Y126.356 E40.81494
G1 X133.24 Y126.366 E40.81596
G1 X133.073 Y126.477 E40.82594
G1 X133.057 Y126.489 E40.82694
G1 X132.905 Y126.614 E40.83673
G1 X132.739 Y126.78 E40.84841
G1 X132.614 Y126.932 E40.85821
G1 X132.602 Y126.948 E40.8592
G1 X132.491 Y127.115 E40.86918
G1 X132.481 Y127.133 E40.8702
G1 X132.394 Y127.296 E40.8794
G1 X132.386 Y127.312 E40.88029
G1 X132.304 Y127.508 E40.89086
G1 X132.298 Y127.528 E40.8919
G1 X132.243 Y127.709 E40.90132
G1 X132.239 Y127.727 E40.90223
G1 X132.204 Y127.906 E40.91131
G1 X132.199 Y127.927 E40.91238
G1 X132.18 Y128.128 E40.92243
G1 X132.178 Y128.148 E40.92343
G1 X132.176 Y133.215 E41.17559
G1 X132.41 Y133.449 E41.19206
G1 X139.34 Y133.449 E41.53694
G1 X139.574 Y133.215 E41.55341
G1 X139.574 Y126.285 E41.89828
G1 X139.34 Y126.051 E41.91475
G1 X134.272 Y126.053 E42.16696
G0 F2700 X133.3 Y126.153
G1 F1200 X133.3 Y93.849 E43.77459
G0 F2700 X132.607 Y93.31
G1 F1200 X105.785 Y93.31 E45.1094
G0 F2700 X105.785 Y90.644
G1 F1200 X132.017 Y90.644 E46.41484
G1 F3600 E39.91484
G0 F2700 X131.712 Y90.645
G0 X131.711 Y87.979
G0 X132.016 Y87.978
G1 F3600 E46.41484
G1 F1200 X105.68 Y87.978 E47.72547
G0 F2700 X103.974 Y87.59
G1 F1200 X103.974 Y85.41 E47.83396
G0 F2700 X101.308 Y85.41
G1 F1200 X101.308 Y87.59 E47.94244
G0 F2700 X100.07 Y87.978
G1 F1200 X87.185 Y87.978 E48.58367
G0 F2700 X87.184 Y90.644
G1 F1200 X99.965 Y90.644 E49.21972
G0 F2700 X99.965 Y93.31
G1 F1200 X86.76 Y93.31 E49.87688
G0 F2700 X85.312 Y94.57
G1 F1200 X85.312 Y125.43 E51.41264
G0 F2700 X84.947 Y125.302
G1 F1200 X140.715 Y125.302 E54.18796
G1 F3600 E47.68796
G0 F2700 X138.631 Y125.586
G0 X138.632 Y125.891
G1 F3600 E54.18796
G1 F1200 X138.632 Y94.11 E55.76956
G1 F3600 E49.26956
G0 F2700 X138.632 Y94.415
G0 X139.532 Y94.411
G0 X140.036 Y93.907
G0 X140.04 Y93.31
G0 X139.735 Y93.31
G1 F3600 E55.76956
G1 F1200 X140.715 Y93.31 E55.81833
G0 F2700 X140.715 Y90.644
G1 F1200 X139.735 Y90.644 E55.8671
G1 F3600 E49.3671
G0 F2700 X140.04 Y90.644
G0 X140.04 Y87.978
G0 X139.735 Y87.978
G1 F3600 E55.8671
G1 F1200 X140.715 Y87.978 E55.91587
G1 F3600 E49.41587
G0 F2700 X140.036 Y86.593
G0 X139.532 Y86.089
G0 X138.632 Y86.085
G0 X138.632 Y86.39
G1 F3600 E55.91587
G1 F1200 X138.632 Y85.41 E55.96464
G0 F2700 X135.966 Y85.41
G1 F1200 X135.966 Y86.39 E56.01341
G1 F3600 E49.51341
G0 F2700 X135.966 Y86.085
G0 X133.3 Y86.085
G0 X133.3 Y86.39
G1 F3600 E56.01341
G1 F1200 X133.3 Y85.41 E56.06218
G0 F2700 X130.634 Y85.41
G1 F1200 X130.634 Y134.59 E58.50965
G1 F3600 E52.00965
G0 F2700 X131.819 Y133.517
G0 X132.034 Y133.3
G1 F3600 E58.50965
G1 F1200 X87.184 Y133.3 E60.74163
G0 F2700 X87.978 Y134.59
G1 F1200 X87.978 Y85.41 E63.18909
G0 F2700 X85.312 Y85.41
G1 F1200 X85.312 Y85.69 E63.20303
G0 F2700 X82.646 Y85.773
G1 F1200 X82.646 Y85.41 E63.22109
G0 F2700 X79.98 Y85.41
G1 F1200 X79.98 Y85.69 E63.23503
G1 F3600 E56.73503
G0 F2700 X78.968 Y86.089
G0 X78.464 Y86.593
G0 X78.464 Y93.907
G0 X78.968 Y94.411
G0 X79.98 Y94.811
G1 F3600 E63.23503
G1 F1200 X79.98 Y125.19 E64.74685
G0 F2700 X79.285 Y122.636
G1 F1200 X140.715 Y122.636 E67.80395
G0 F2700 X140.715 Y119.97
G1 F1200 X79.286 Y119.97 E70.86099
G0 F2700 X79.287 Y117.304
G1 F1200 X140.715 Y117.304 E73.91798
G0 F2700 X140.715 Y114.638
G1 F1200 X79.288 Y114.638 E76.97493
G0 F2700 X79.289 Y111.972
G1 F1200 X140.715 Y111.972 E80.03182
G0 F2700 X140.715 Y109.306
G1 F1200 X79.289 Y109.306 E83.08872
G0 F2700 X79.29 Y106.64
G1 F1200 X99.965 Y106.64 E84.11762
G0 F2700 X101.308 Y108.91
G1 F1200 X101.308 Y134.59 E85.39559
G0 F2700 X98.642 Y134.59
G1 F1200 X98.642 Y85.41 E87.84306
G0 F2700 X95.976 Y85.41
G1 F1200 X95.976 Y134.59 E90.29053
G0 F2700 X93.31 Y134.59
G1 F1200 X93.31 Y85.41 E92.73799
G0 F2700 X90.644 Y85.41
G1 F1200 X90.644 Y134.59 E95.18546
G0 F2700 X87.183 Y130.634
G1 F1200 X132.016 Y130.634 E97.41659
G1 F3600 E90.91659
G0 F2700 X131.711 Y130.634
G0 X131.713 Y128.125
G0 X132.033 Y127.968
G1 F3600 E97.41659
G1 F1200 X87.168 Y127.968 E99.64932
G1 F3600 E93.14932
G0 F2700 X86.786 Y133.407
G0 X86.282 Y133.911
G0 X78.968 Y133.911
G0 X78.464 Y133.407
G0 X78.464 Y126.093
G0 X78.968 Y125.589
G0 X82.646 Y125.19
G1 F3600 E99.64932
G1 F1200 X82.646 Y94.808 E101.1613
G0 F2700 X79.292 Y95.976
G1 F1200 X99.965 Y95.976 E102.1901
G0 F2700 X99.965 Y98.642
G1 F1200 X79.292 Y98.642 E103.2189
G0 F2700 X79.291 Y101.308
G1 F1200 X99.965 Y101.308 E104.24775
G0 F2700 X99.965 Y103.974
G1 F1200 X79.29 Y103.974 E105.27665
G0 F2700 X103.974 Y108.91
G1 F1200 X103.974 Y134.59 E106.55463
G0 F2700 X106.64 Y134.59
G1 F1200 X106.64 Y85.41 E109.0021
G0 F2700 X109.306 Y85.41
G1 F1200 X109.306 Y134.59 E111.44956
G0 F2700 X111.972 Y134.59
G1 F1200 X111.972 Y85.41 E113.89703
G0 F2700 X114.638 Y85.41
G1 F1200 X114.638 Y134.59 E116.3445
G0 F2700 X117.304 Y134.59
G1 F1200 X117.304 Y85.41 E118.79196
G0 F2700 X119.97 Y85.41
G1 F1200 X119.97 Y134.59 E121.23943
G0 F2700 X122.636 Y134.59
G1 F1200 X122.636 Y85.41 E123.68689
G0 F2700 X125.302 Y85.41
G1 F1200 X125.302 Y134.59 E126.13436
G0 F2700 X127.968 Y134.59
G1 F1200 X127.968 Y85.41 E128.58183
G1 F3600 E122.08183
G0 F2700 X139.532 Y86.089
G0 X140.036 Y86.593
G0 X140.036 Y93.907
G0 X139.532 Y94.411
G0 X135.966 Y94.414
G0 X135.966 Y94.109
G1 F3600 E128.58183
G1 F1200 X135.966 Y125.892 E130.16352
G1 F3600 E123.66352
G0 F2700 X135.965 Y125.587
G0 X139.532 Y125.589
G0 X140.036 Y126.093
G0 X140.04 Y127.968
G0 X139.735 Y127.968
G1 F3600 E130.16352
G1 F1200 X140.715 Y127.968 E130.21229
G0 F2700 X140.715 Y130.634
G1 F1200 X139.735 Y130.634 E130.26106
G1 F3600 E123.76106
G0 F2700 X140.04 Y130.634
G0 X140.04 Y133.3
G0 X139.716 Y133.3
G1 F3600 E130.26106
G1 F1200 X140.715 Y133.3 E130.31078
G1 F3600 E123.81078
G0 F2700 X139.532 Y133.911
G0 X138.632 Y133.915
G0 X138.632 Y133.61
G1 F3600 E130.31078
G1 F1200 X138.632 Y134.59 E130.35955
G0 F2700 X135.966 Y134.59
G1 F1200 X135.966 Y133.61 E130.40832
G1 F3600 E123.90832
G0 F2700 X135.966 Y133.915
G0 X133.3 Y133.915
G0 X133.3 Y133.61
G1 F3600 E130.40832
G1 F1200 X133.3 Y134.59 E130.45709
G1 F3600 E123.95709
G0 F2700 X139.532 Y133.911
G0 X140.036 Y133.407
G0 X140.715 Y106.64
G1 F3600 E130.45709
G1 F1200 X105.785 Y106.64 E132.1954
G0 F2700 X105.785 Y103.974
G1 F1200 X140.715 Y103.974 E133.9337
G0 F2700 X140.715 Y101.308
G1 F1200 X105.785 Y101.308 E135.67201
G0 F2700 X105.785 Y98.642
G1 F1200 X140.715 Y98.642 E137.41032
G0 F2700 X140.715 Y95.976
G1 F1200 X105.785 Y95.976 E139.14863
G1 F3600 E132.64863
G0 F2700 X86.786 Y133.407
G0 X86.282 Y133.911
G0 X85.312 Y134.31
G1 F3600 E139.14863
G1 F1200 X85.312 Y134.59 E139.16256
G0 F2700 X82.646 Y134.59
G1 F1200 X82.646 Y134.222 E139.18088
G0 F2700 X79.98 Y134.31
G1 F1200 X79.98 Y134.59 E139.19481
G1 F3600 E132.69481
G0 F2700 X78.968 Y133.911
G0 X78.464 Y133.407
G0 X78.464 Y126.093
G0 X81.955 Y94.413
G0 X81.958 Y94.333
G0 X82.131 Y90.813
G0 X82.135 Y90.733
G0 X82.145 Y90.551
G1 F3600 E139.19481
G1 F1200 X81.895 Y90.444 E139.20834
G1 X81.846 Y90.414 E139.2112
G1 X81.822 Y90.398 E139.21264
G1 X81.784 Y90.364 E139.21518
G1 X81.764 Y90.344 E139.21658
G1 X81.746 Y90.325 E139.21789
G1 X81.707 Y90.272 E139.22116
G1 X81.678 Y90.224 E139.22395
G1 X81.666 Y90.2 E139.22529
G1 X81.644 Y90.136 E139.22866
G1 X81.643 Y90.131 E139.22891
G1 X81.629 Y90.045 E139.23325
G1 X81.626 Y89.988 E139.23609
G1 X81.629 Y89.948 E139.23808
G1 X81.635 Y89.903 E139.24034
G1 X81.639 Y89.891 E139.24097
G1 X81.648 Y89.85 E139.24306
G1 X81.664 Y89.805 E139.24544
G1 X81.69 Y89.754 E139.24829
G1 X81.715 Y89.715 E139.25059
G1 X81.748 Y89.674 E139.25321
G1 X81.775 Y89.644 E139.25522
G1 X82.135 Y89.318 E139.27939
G1 X82.481 Y89.65 E139.30325
G1 X82.532 Y89.711 E139.30721
G1 X82.535 Y89.715 E139.30746
G1 X82.546 Y89.729 E139.30834
G1 X82.572 Y89.778 E139.3111
G1 X82.591 Y89.819 E139.31335
G1 X82.613 Y89.894 E139.31724
G1 X82.614 Y89.897 E139.3174
G1 X82.624 Y89.99 E139.32206
G1 X82.624 Y90.015 E139.3233
