;FLAVOR:Marlin
;TIME:4741
;Filament used: 4.30761m
;Layer height: 0.15
;MINX:78.472
;MINY:85.17
;MINZ:0.2
;MAXX:140.954
;MAXY:134.83
;MAXZ:11.9
;Generated with Cura_SteamEngine main
M140 S60
M105
M190 S60
M104 S211
M105
M109 S211
M82 ;absolute extrusion mode
; -- START GCODE --
G21                     ;set units to millimetres
G90                     ;set to absolute positioning
M106 S0                 ;set fan speed to zero (turned off)
G28                     ;home all axis
M420 S1                 ;turn on mesh bed levelling if enabled in firmware
G92 E0                  ;zero the extruded length
G1 Z1 F1000             ;move up slightly
G1 X60.0 Z0 E9.0 F1000.0;intro line
G1 X100.0 E21.5 F1000.0 ;continue line
G92 E0                  ;zero the extruded length again
; -- end of START GCODE --
G92 E0
G92 E0
G1 F3000 E-5
;LAYER_COUNT:79
;LAYER:0
M107
G0 F3600 X79.044 Y85.344 Z0.2
;TYPE:SUPPORT
G1 F3000 E0
G1 F1800 X140.082 Y85.344 E2.03013
G0 F3600 X138.684 Y85.17
G1 F1800 X138.684 Y86.13 E2.06206
G0 F3600 X139.993 Y88.011
G1 F1800 X140.954 Y88.011 E2.09402
G0 F3600 X140.954 Y90.678
G1 F1800 X139.993 Y90.678 E2.12599
G0 F3600 X139.993 Y93.345
G1 F1800 X140.954 Y93.345 E2.15795
G0 F3600 X138.684 Y94.37
G1 F1800 X138.684 Y125.631 E3.1977
G0 F3600 X140.954 Y125.349
G1 F1800 X79.044 Y125.349 E5.25683
G0 F3600 X80.01 Y125.63
G1 F1800 X80.01 Y94.369 E6.29658
G0 F3600 X79.044 Y96.012
G1 F1800 X100.204 Y96.012 E7.00036
G0 F3600 X100.204 Y98.679
G1 F1800 X79.044 Y98.679 E7.70414
G0 F3600 X79.044 Y101.346
G1 F1800 X100.204 Y101.346 E8.40793
G0 F3600 X100.204 Y104.013
G1 F1800 X79.044 Y104.013 E9.11171
G0 F3600 X79.044 Y106.68
G1 F1800 X100.204 Y106.68 E9.8155
G0 F3600 X101.346 Y108.67
G1 F1800 X101.346 Y134.83 E10.68558
G0 F3600 X98.679 Y134.83
G1 F1800 X98.679 Y85.17 E12.33728
G0 F3600 X96.012 Y85.17
G1 F1800 X96.012 Y134.83 E13.98898
G0 F3600 X93.345 Y134.83
G1 F1800 X93.345 Y85.17 E15.64068
G0 F3600 X90.678 Y85.17
G1 F1800 X90.678 Y134.83 E17.29238
G0 F3600 X88.011 Y134.83
G1 F1800 X88.011 Y85.17 E18.94407
G0 F3600 X85.344 Y85.17
G1 F1800 X85.344 Y86.13 E18.976
G0 F3600 X86.744 Y88.011
G1 F1800 X100.256 Y88.011 E19.42542
G0 F3600 X101.346 Y87.83
G1 F1800 X101.346 Y85.17 E19.51389
G0 F3600 X104.013 Y85.17
G1 F1800 X104.013 Y87.83 E19.60236
G0 F3600 X105.492 Y88.011
G1 F1800 X131.754 Y88.011 E20.47584
G0 F3600 X133.35 Y86.13
G1 F1800 X133.35 Y85.17 E20.50777
G0 F3600 X130.683 Y85.17
G1 F1800 X130.683 Y134.83 E22.15947
G0 F3600 X131.754 Y133.35
G1 F1800 X86.743 Y133.349 E23.65654
G0 F3600 X85.344 Y133.87
G1 F1800 X85.344 Y134.83 E23.68847
G0 F3600 X82.677 Y134.83
G1 F1800 X82.677 Y133.87 E23.7204
G0 F3600 X80.01 Y133.87
G1 F1800 X80.01 Y134.83 E23.75233
G1 F3000 E18.75233
G0 F3600 X86.778 Y133.903
G0 X86.788 Y130.682
G0 X86.742 Y130.683
G1 F3000 E23.75233
G1 F1800 X131.755 Y130.683 E25.24946
G0 F3600 X131.768 Y128.016
G1 F1800 X86.729 Y128.016 E26.74747
G0 F3600 X85.344 Y125.929
G1 F1800 X85.344 Y94.07 E27.8071
G0 F3600 X86.198 Y93.345
G1 F1800 X100.204 Y93.345 E28.27294
G0 F3600 X100.204 Y90.678
G1 F1800 X86.743 Y90.678 E28.72066
G1 F3000 E23.72066
G0 F3600 X86.789 Y90.678
G0 X86.787 Y91.907
G0 X86.478 Y93.007
G0 X85.904 Y93.738
G0 X84.892 Y94.306
G0 X82.678 Y94.413
G0 X82.677 Y94.368
G1 F3000 E28.72066
G1 F1800 X82.677 Y125.631 E29.76047
G1 F3000 E24.76047
G0 F3600 X82.677 Y125.586
G0 X79.044 Y122.682
G1 F3000 E29.76047
G1 F1800 X140.954 Y122.682 E31.81961
G0 F3600 X140.954 Y120.015
G1 F1800 X79.044 Y120.015 E33.87874
G0 F3600 X79.044 Y117.348
G1 F1800 X140.954 Y117.348 E35.93788
G0 F3600 X140.954 Y114.681
G1 F1800 X79.044 Y114.681 E37.99701
G0 F3600 X79.044 Y112.014
G1 F1800 X140.954 Y112.014 E40.05615
G0 F3600 X140.954 Y109.347
G1 F1800 X79.044 Y109.347 E42.11528
G1 F3000 E37.11528
G0 F3600 X78.472 Y94.403
G0 X78.472 Y86.097
G0 X80.01 Y86.085
G0 X80.01 Y86.13
G1 F3000 E42.11528
G1 F1800 X80.01 Y85.17 E42.14721
G0 F3600 X82.677 Y85.17
G1 F1800 X82.677 Y86.13 E42.17914
G1 F3000 E37.17914
G0 F3600 X82.677 Y86.085
G0 X86.778 Y86.097
G0 X105.544 Y90.678
G1 F3000 E42.17914
G1 F1800 X131.755 Y90.678 E43.05092
G0 F3600 X132.299 Y93.345
G1 F1800 X105.544 Y93.345 E43.9408
G0 F3600 X105.544 Y96.012
G1 F1800 X140.954 Y96.012 E45.11854
G0 F3600 X140.954 Y98.679
G1 F1800 X105.544 Y98.679 E46.29628
G0 F3600 X105.544 Y101.346
G1 F1800 X140.954 Y101.346 E47.47402
G0 F3600 X140.954 Y104.013
G1 F1800 X105.544 Y104.013 E48.65176
G0 F3600 X105.544 Y106.68
G1 F1800 X140.954 Y106.68 E49.8295
G1 F3000 E44.8295
G0 F3600 X136.017 Y94.414
G0 X136.017 Y94.369
G1 F3000 E49.8295
G1 F1800 X136.017 Y125.632 E50.86931
G0 F3600 X133.35 Y125.849
G1 F1800 X133.35 Y94.151 E51.92359
G1 F3000 E46.92359
G0 F3600 X133.334 Y94.193
G0 X132.313 Y93.442
G0 X131.819 Y92.517
G0 X131.722 Y86.097
G0 X136.017 Y86.085
G0 X136.017 Y86.13
G1 F3000 E51.92359
G1 F1800 X136.017 Y85.17 E51.95552
G1 F3000 E46.95552
G0 F3600 X128.016 Y85.17
G1 F3000 E51.95552
G1 F1800 X128.016 Y134.83 E53.60722
G0 F3600 X125.349 Y134.83
G1 F1800 X125.349 Y85.17 E55.25892
G0 F3600 X122.682 Y85.17
G1 F1800 X122.682 Y134.83 E56.91062
G0 F3600 X120.015 Y134.83
G1 F1800 X120.015 Y85.17 E58.56232
G0 F3600 X117.348 Y85.17
G1 F1800 X117.348 Y134.83 E60.21402
G0 F3600 X114.681 Y134.83
G1 F1800 X114.681 Y85.17 E61.86571
G0 F3600 X112.014 Y85.17
G1 F1800 X112.014 Y134.83 E63.51741
G0 F3600 X109.347 Y134.83
G1 F1800 X109.347 Y85.17 E65.16911
G0 F3600 X106.68 Y85.17
G1 F1800 X106.68 Y134.83 E66.82081
G0 F3600 X104.013 Y134.83
G1 F1800 X104.013 Y108.67 E67.69089
G1 F3000 E62.69089
G0 F3600 X131.722 Y133.903
G0 X133.35 Y133.915
G0 X133.35 Y133.87
G1 F3000 E67.69089
G1 F1800 X133.35 Y134.83 E67.72282
G0 F3600 X136.017 Y134.83
G1 F1800 X136.017 Y133.87 E67.75475
G0 F3600 X138.684 Y133.87
G1 F1800 X138.684 Y134.83 E67.78668
G0 F3600 X139.994 Y133.35
G1 F1800 X140.954 Y133.35 E67.81861
G0 F3600 X140.954 Y130.683
G1 F1800 X139.994 Y130.683 E67.85054
G0 F3600 X139.994 Y128.016
G1 F1800 X140.954 Y128.016 E67.88247
G1 F3000 E62.88247
G0 F3600 X82.677 Y90.527
G1 F3000 E67.88247
G1 F1800 X82.677 Y89.484 E67.91716
G0 F3600 X82.477 Y90.678
G1 F1800 X81.798 Y90.678 E67.93975
G1 F3000 E62.93975
G0 F3600 X82.677 Y129.484
G1 F3000 E67.93975
G1 F1800 X82.677 Y130.527 E67.97444
G0 F3600 X82.466 Y130.683
G1 F1800 X81.809 Y130.683 E67.99629
G1 F3000 E62.99629
G0 F3600 X135.81 Y130.683
G1 F3000 E67.99629
G1 F1800 X136.465 Y130.683 E68.01807
G0 F3600 X136.017 Y130.768
G1 F1800 X136.017 Y129.246 E68.0687
G1 F3000 E63.0687
G0 F3600 X136.017 Y90.768
G1 F3000 E68.0687
G1 F1800 X136.017 Y89.246 E68.11932
G0 F3600 X135.797 Y90.678
G1 F1800 X136.475 Y90.678 E68.14187
G1 F3000 E63.14187
;MESH:cyril.stl
G0 F3600 X137.62 Y88.987
G0 X137.251 Y87.815
;TYPE:WALL-INNER
G1 F3000 E68.14187
G1 F1358.5 X137.58 Y88.012 E68.15877
G1 X138.063 Y88.486 E68.18859
G1 X138.31 Y88.901 E68.20987
G1 X138.31 Y88.08 E68.24606
G1 X138.31 Y87.815 E68.25773
G1 X137.251 Y87.815 E68.3044
G0 F3600 X136.059 Y87.756
G0 X134.924 Y88.102
G0 X133.365 Y90.141
G1 F1850.9 X133.376 Y90.752 E68.32417
G1 F1800 X133.378 Y91.761 E68.35773
G1 X133.429 Y92.052 E68.36756
G1 X133.606 Y92.379 E68.37992
G1 X133.746 Y92.52 E68.38653
G1 X134.073 Y92.696 E68.39888
G1 X134.365 Y92.748 E68.40875
G1 F1809 X135.497 Y92.749 E68.44621
G1 F1870.1 X136.159 Y92.762 E68.46741
G1 F1841.4 X136.684 Y92.745 E68.48448
G1 F1777.8 X137.53 Y92.747 E68.51297
G1 F1795.5 X138.376 Y92.749 E68.54118
G1 F1800 X138.375 Y90.862 E68.60394
G1 X138.05 Y91.432 E68.62577
G1 X137.726 Y91.786 E68.64173
G1 X137.3 Y92.086 E68.65906
G1 F1786.6 X136.678 Y92.336 E68.68152
G1 F1846.2 X136.159 Y92.387 E68.69843
G1 F1870.1 X135.565 Y92.327 E68.71755
G1 F1809 X134.936 Y92.083 E68.73987
G1 F1800 X134.568 Y91.825 E68.75482
G1 X134.197 Y91.427 E68.77292
G1 X133.918 Y90.934 E68.79176
G1 F1832.1 X133.753 Y90.312 E68.81279
G1 F1855.7 X133.756 Y89.669 E68.83353
G1 F1827.4 X133.863 Y89.199 E68.84932
G1 F1800 X134.096 Y88.725 E68.86689
G1 X134.526 Y88.211 E68.88918
G1 X134.95 Y87.914 E68.9064
G1 X135.309 Y87.751 E68.91951
G1 X133.376 Y87.75 E68.9838
G1 X133.377 Y89.102 E69.02877
G1 F1827.4 X133.371 Y89.622 E69.04581
G1 F1879.9 X133.365 Y90.142 E69.06237
G0 F3600 X134.14 Y90.245
G1 F1800 X134.143 Y89.746 E69.07897
G1 X134.232 Y89.353 E69.09237
G1 X134.415 Y88.967 E69.10658
G1 X134.669 Y88.633 E69.12053
G1 X134.993 Y88.353 E69.13478
G1 F1678.3 X135.483 Y88.079 E69.1548
G1 F1417.3 X135.628 Y87.982 E69.16217
G1 F1328.4 X136.142 Y87.938 E69.18542
G1 F1355.9 X136.418 Y87.954 E69.19763
G1 F1434.3 X137.057 Y88.227 E69.22663
G1 F1659 X137.437 Y88.496 E69.24343
G1 F1647.6 X137.769 Y88.852 E69.26112
G1 F1406.2 X138.153 Y89.572 E69.29586
G1 F1340.8 X138.187 Y89.999 E69.31499
G1 F1311.5 X138.119 Y90.599 E69.34255
G1 F1481.5 X137.975 Y90.757 E69.35119
G1 F1800 X137.743 Y91.175 E69.36709
G1 X137.478 Y91.472 E69.38033
G1 X137.134 Y91.722 E69.39448
G1 F1804.5 X136.608 Y91.939 E69.41335
G1 X136.159 Y92 E69.42839
G1 F1800 X135.692 Y91.949 E69.44401
G1 X135.292 Y91.815 E69.45804
G1 X134.904 Y91.584 E69.47306
G1 X134.506 Y91.172 E69.49211
G1 X134.274 Y90.751 E69.5081
G1 X134.14 Y90.245 E69.52551
G0 F3600 X133.848 Y90.31
G0 X134.275 Y91.274
G0 X135.119 Y92.008
G0 X136.191 Y92.244
G0 X137.326 Y91.898
G0 X138.475 Y90.647
G0 X138.689 Y90.647
G1 F1311.5 X138.713 Y89.999 E69.55511
G1 F1340.8 X138.7 Y89.539 E69.57566
G1 F1487.6 X138.775 Y89.145 E69.5918
G1 F1739.1 X138.775 Y88.612 E69.61015
G1 F1782.2 X138.775 Y88.079 E69.62805
G1 F1800 X138.775 Y88.08 E69.62809
G1 X138.775 Y87.35 E69.65237
G1 X137.094 Y87.35 E69.70828
G1 F1538.5 X136.438 Y87.419 E69.73395
G1 F1358.5 X136.091 Y87.412 E69.74924
G1 F1330.9 X135.58 Y87.429 E69.77224
G1 F1503.1 X134.915 Y87.35 E69.79891
G1 F1800 X132.976 Y87.35 E69.86341
G1 X132.978 Y91.796 E70.01128
G1 X133.042 Y92.164 E70.0237
G1 X133.144 Y92.408 E70.0325
G1 X133.295 Y92.634 E70.04154
G1 X133.491 Y92.831 E70.05078
G1 X133.715 Y92.98 E70.05973
G1 X133.961 Y93.083 E70.0686
G1 X134.331 Y93.148 E70.0811
G1 X138.775 Y93.149 E70.2289
G1 X138.775 Y90.952 E70.30198
G1 F1481.5 X138.689 Y90.647 E70.31478
G0 F3600 X138.475 Y90.647
G0 X137.691 Y91.606
G0 X136.744 Y92.161
G0 X135.715 Y92.208
G0 X134.709 Y91.743
G0 X133.853 Y90.33
G0 X134.534 Y90.176
;TYPE:WALL-OUTER
G1 F1800 X134.535 Y89.824 E70.32649
G1 X134.602 Y89.507 E70.33727
G1 X134.733 Y89.209 E70.34809
G1 X135.022 Y88.839 E70.36371
G1 X135.282 Y88.642 E70.37456
G1 X135.71 Y88.454 E70.39011
G1 X136.107 Y88.4 E70.40343
G1 X136.383 Y88.421 E70.41264
G1 X136.877 Y88.587 E70.42997
G1 X137.144 Y88.768 E70.4407
G1 X137.464 Y89.128 E70.45672
G1 X137.665 Y89.571 E70.4729
G1 X137.725 Y89.999 E70.48728
G1 X137.64 Y90.515 E70.50467
G1 X137.459 Y90.883 E70.51831
G1 X137.259 Y91.13 E70.52888
G1 X136.968 Y91.358 E70.54118
G1 X136.588 Y91.531 E70.55506
G1 X136.143 Y91.6 E70.57004
G1 X135.867 Y91.579 E70.57925
G1 X135.419 Y91.435 E70.5949
G1 X135.136 Y91.258 E70.606
G1 X134.814 Y90.917 E70.6216
G1 X134.63 Y90.569 E70.63469
G1 X134.534 Y90.176 E70.64815
G0 F3600 X134.534 Y89.976
G0 X133.832 Y89.976
G0 X132.845 Y87.22
G0 X132.576 Y86.95
G1 F1800 X132.578 Y91.831 E70.81049
G1 X132.656 Y92.276 E70.82552
G1 X132.789 Y92.598 E70.8371
G1 X132.984 Y92.889 E70.84875
G1 X133.235 Y93.141 E70.86058
G1 X133.525 Y93.335 E70.87219
G1 X133.849 Y93.469 E70.88385
G1 X134.296 Y93.548 E70.89895
G1 X139.175 Y93.549 E71.06122
G1 X139.175 Y88.08 E71.24312
G1 X139.175 Y86.95 E71.28071
G1 X132.576 Y86.95 E71.50019
G0 F3600 X132.576 Y87.15
G0 X133.245 Y87.62
G0 X133.899 Y88.17
;TYPE:SKIN
G1 F1184.2 X133.824 Y88.17 E71.50398
G1 X133.786 Y88.235 E71.50779
G1 X133.823 Y88.3 E71.51157
G1 X133.899 Y88.3 E71.51541
G1 X133.937 Y88.235 E71.51922
G0 F3600 X133.737 Y91.341
G1 F2005.6 X133.777 Y91.942 E71.5372
G1 F2011.2 X133.971 Y92.236 E71.54769
G1 X134.182 Y92.349 E71.55481
G1 X134.752 Y92.39 E71.57182
G1 X134.326 Y92.093 E71.58728
G1 X133.919 Y91.657 E71.60504
G1 F2005.6 X133.737 Y91.341 E71.61592
G0 F3600 X135.119 Y92.008
G0 X137.927 Y92.198
G1 F1176.5 X137.852 Y92.198 E71.61974
G1 X137.814 Y92.263 E71.62357
G1 X137.851 Y92.328 E71.62738
G1 X137.927 Y92.328 E71.63124
G1 X137.965 Y92.263 E71.63507
G1 F3000 E66.63507
G0 F3600 X135.588 Y93.329
G0 X135.588 Y94.414
G0 X135.601 Y125.587
G0 X135.602 Y126.652
G0 X135.572 Y127.662
;TYPE:WALL-INNER
G1 F3000 E71.63507
G1 F1836.7 X136.09 Y127.613 E71.65203
G1 F1870.1 X136.685 Y127.673 E71.67118
G1 F1809 X137.085 Y127.806 E71.68513
G1 F1800 X137.605 Y128.11 E71.70516
G1 X138.015 Y128.53 E71.72468
G1 X138.192 Y128.797 E71.73534
G1 X138.375 Y129.203 E71.75015
G1 X138.375 Y127.73 E71.79914
G1 X138.375 Y127.251 E71.81507
G1 F1809 X136.753 Y127.251 E71.86875
G1 F1870.1 X136.09 Y127.238 E71.88998
G1 F1836.7 X135.537 Y127.256 E71.90802
G1 F1773.4 X134.951 Y127.254 E71.9278
G1 F1791 X134.365 Y127.252 E71.94739
G1 F1800 X134.072 Y127.303 E71.95728
G1 X133.692 Y127.528 E71.97197
G1 X133.497 Y127.783 E71.98264
G1 X133.379 Y128.242 E71.99841
G1 F1818.2 X133.375 Y128.782 E72.01619
G1 F1850.9 X133.371 Y129.322 E72.03365
G1 F1889.8 X133.367 Y129.862 E72.05076
G1 F1850.9 X133.376 Y130.752 E72.07955
G1 F1800 X133.376 Y132.249 E72.12934
G1 X135.333 Y132.25 E72.19443
G1 X134.936 Y132.083 E72.20876
G1 X134.519 Y131.776 E72.22598
G1 X134.218 Y131.451 E72.24071
G1 X133.919 Y130.934 E72.26058
G1 F1832.1 X133.753 Y130.313 E72.28158
G1 F1860.5 X133.756 Y129.669 E72.30231
G1 F1827.4 X133.863 Y129.199 E72.3181
G1 F1800 X134.096 Y128.725 E72.33567
G1 X134.426 Y128.302 E72.35351
G1 X134.95 Y127.914 E72.3752
G1 F1782.2 X135.572 Y127.662 E72.39774
G0 F3600 X136.535 Y127.792
G0 X137.541 Y128.257
G0 X138.299 Y129.426
G0 X138.245 Y130.748
G0 X137.226 Y132.187
G1 F1374 X138.313 Y132.188 E72.4451
G1 X138.313 Y131.109 E72.49211
G1 X138.098 Y131.471 E72.51046
G1 X137.864 Y131.743 E72.52609
G1 X137.544 Y132.009 E72.54422
G1 X137.226 Y132.187 E72.5601
G0 F3600 X138.475 Y130.647
G0 X138.689 Y130.647
G1 F1311.5 X138.713 Y129.999 E72.5897
G1 F1340.8 X138.7 Y129.539 E72.61025
G1 F1487.6 X138.775 Y129.145 E72.62639
G1 F1739.1 X138.775 Y128.437 E72.65076
G1 F1782.2 X138.775 Y127.729 E72.67455
G1 F1800 X138.775 Y127.73 E72.67458
G1 X138.775 Y126.851 E72.70382
G1 X134.332 Y126.852 E72.85159
G1 X133.96 Y126.917 E72.86415
G1 X133.723 Y127.016 E72.87269
G1 X133.429 Y127.224 E72.88467
G1 X133.142 Y127.594 E72.90025
G1 X133.042 Y127.836 E72.90896
G1 X132.978 Y128.207 E72.92148
G1 X132.976 Y132.649 E73.06922
G1 X135.156 Y132.65 E73.14173
G1 F1538.5 X135.812 Y132.581 E73.16739
G1 F1358.5 X136.159 Y132.588 E73.18269
G1 F1330.9 X136.67 Y132.571 E73.20569
G1 F1503.1 X137.335 Y132.65 E73.23236
G1 F1800 X138.775 Y132.65 E73.28026
G1 F1786.6 X138.775 Y132.113 E73.29825
G1 F1760.4 X138.775 Y131.576 E73.31651
G1 F1734.9 X138.775 Y131.039 E73.33504
G1 F1451.6 X138.689 Y130.647 E73.3516
G0 F3600 X138.475 Y130.647
G0 X137.691 Y131.606
G0 X136.744 Y132.161
G0 X135.715 Y132.208
G0 X134.709 Y131.743
G0 X133.848 Y130.31
G0 X134.14 Y130.245
G1 F1800 X134.143 Y129.746 E73.36819
G1 X134.232 Y129.353 E73.3816
G1 X134.415 Y128.967 E73.3958
G1 X134.714 Y128.58 E73.41207
G1 X134.993 Y128.353 E73.42403
G1 X135.57 Y128.069 E73.44542
G1 X136.09 Y128 E73.46287
G1 X136.558 Y128.051 E73.47853
G1 X136.958 Y128.185 E73.49256
G1 X137.362 Y128.428 E73.50824
G1 F1647.6 X137.767 Y128.849 E73.52947
G1 F1406.2 X138.153 Y129.572 E73.56436
G1 F1340.8 X138.187 Y129.999 E73.58348
G1 F1311.5 X138.119 Y130.599 E73.61105
G1 F1481.5 X137.743 Y131.175 E73.63885
G1 F1800 X137.534 Y131.421 E73.64958
G1 X137.258 Y131.646 E73.66143
G1 F1678.3 X136.767 Y131.921 E73.6815
G1 F1417.3 X136.622 Y132.018 E73.68887
G1 F1323.5 X136.258 Y132.058 E73.70543
G1 F1350.8 X135.832 Y132.046 E73.72432
G1 F1434.3 X135.193 Y131.773 E73.75333
G1 F1659 X134.813 Y131.504 E73.77013
G1 F1800 X134.518 Y131.186 E73.78456
G1 X134.275 Y130.751 E73.80113
G1 X134.14 Y130.245 E73.81855
G0 F3600 X134.631 Y130.569
;TYPE:WALL-OUTER
G1 F1800 X134.534 Y130.176 E73.83201
G1 X134.535 Y129.824 E73.84372
G1 X134.602 Y129.507 E73.85449
G1 X134.733 Y129.209 E73.86532
G1 X134.991 Y128.87 E73.87949
G1 X135.241 Y128.667 E73.8902
G1 X135.71 Y128.454 E73.90733
G1 X136.107 Y128.4 E73.92066
G1 X136.383 Y128.421 E73.92987
