;FLAVOR:Marlin
;TIME:213
;Filament used: 0.071447m
;Layer height: 0.1
;MINX:106.86
;MINY:106.773
;MINZ:0.2
;MAXX:113.14
;MAXY:113.227
;MAXZ:7
;Generated with Cura_SteamEngine main
M140 S60
M105
M190 S60
M104 S211
M105
M109 S211
M82 ;absolute extrusion mode
; -- START GCODE --
G21                     ;set units to millimetres
G90                     ;set to absolute positioning
M106 S0                 ;set fan speed to zero (turned off)
G28                     ;home all axis
M420 S1                 ;turn on mesh bed levelling if enabled in firmware
G92 E0                  ;zero the extruded length
G1 Z1 F1000             ;move up slightly
G1 X60.0 Z0 E9.0 F1000.0;intro line
G1 X100.0 E21.5 F1000.0 ;continue line
G92 E0                  ;zero the extruded length again
; -- end of START GCODE --
G92 E0
G92 E0
G1 F3000 E-5
;LAYER_COUNT:69
;LAYER:0
M107
;MESH:kung_plu1.stl
G0 F3600 X107.987 Y107.873 Z0.2
;TYPE:WALL-INNER
G1 F3000 E0
G1 F1800 X107.987 Y108.907 E0.03439
G1 X112.014 Y108.907 E0.16833
G1 X112.014 Y107.872 E0.20275
G1 X107.987 Y107.873 E0.33669
G0 F3600 X107.587 Y107.473
G1 F1800 X107.587 Y109.307 E0.39769
G1 X112.414 Y109.307 E0.55824
G1 X112.414 Y107.472 E0.61927
G1 X107.587 Y107.473 E0.77982
G0 F3600 X107.187 Y107.126
;TYPE:WALL-OUTER
G1 F1800 X107.187 Y109.707 E0.86566
G1 X112.814 Y109.707 E1.05282
G1 X112.814 Y107.174 E1.13706
G1 X112.813 Y107.106 E1.13933
G1 X112.731 Y107.073 E1.14227
G1 X107.372 Y107.073 E1.32051
G1 X107.187 Y107.126 E1.32691
G0 F3600 X107.187 Y107.326
G0 X107.856 Y107.742
G0 X108.504 Y108.39
;TYPE:SKIN
G1 F1068.2 X111.497 Y108.39 E1.49465
;MESH:NONMESH
G0 F600 X111.497 Y108.39 Z0.3
G0 F3600 X107.887 Y108.908
G0 X107.815 Y108.907
;TIME_ELAPSED:5.860363
;LAYER:1
M106 S255
;TYPE:WALL-INNER
;MESH:kung_plu1.stl
G1 F1380.3 X112.185 Y108.907 E1.56732
G1 X112.185 Y107.723 E1.58701
G1 X107.816 Y107.723 E1.65967
G1 X107.815 Y108.907 E1.67936
G0 F5400 X107.415 Y109.307
G1 F1380.3 X112.585 Y109.307 E1.76533
G1 X112.585 Y107.323 E1.79833
G1 X107.416 Y107.323 E1.88429
G1 X107.415 Y109.307 E1.91728
G0 F5400 X107.015 Y109.707
;TYPE:WALL-OUTER
G1 F878.4 X112.985 Y109.707 E2.01656
G1 X112.985 Y107.264 E2.05719
G1 X112.985 Y107.084 E2.06018
G1 X112.782 Y106.955 E2.06418
G1 X112.636 Y106.923 E2.06667
G1 X107.321 Y106.923 E2.15506
G1 X107.016 Y107.084 E2.16079
G1 X107.015 Y109.707 E2.20441
G0 F5400 X107.215 Y109.707
G0 X107.685 Y109.037
G0 X108.202 Y108.109
;TYPE:SKIN
G1 F731 X108.202 Y108.521 E2.21147
G1 X111.799 Y108.521 E2.27308
G1 X111.799 Y108.315 E2.27661
G1 X111.799 Y108.109 E2.28014
G1 X108.202 Y108.109 E2.34175
;MESH:NONMESH
G0 F600 X108.202 Y108.109 Z0.4
G0 F5400 X107.747 Y107.623
;TIME_ELAPSED:8.963251
;LAYER:2
;TYPE:WALL-INNER
;MESH:kung_plu1.stl
G1 F1688.7 X107.747 Y108.907 E2.36311
G1 X112.253 Y108.907 E2.43804
G1 X112.253 Y107.623 E2.4594
G1 X107.747 Y107.623 E2.53433
G0 F7200 X107.347 Y107.281
G1 F1688.7 X107.347 Y109.307 E2.56802
G1 X112.653 Y109.307 E2.65626
G1 X112.653 Y107.34 E2.68897
G1 X112.653 Y107.28 E2.68997
G1 X112.573 Y107.223 E2.69161
G1 X107.428 Y107.223 E2.77717
G1 X107.347 Y107.281 E2.77882
G0 F7200 X106.947 Y107.075
;TYPE:WALL-OUTER
G1 F844.4 X106.947 Y109.707 E2.82259
G1 X113.053 Y109.707 E2.92414
G1 X113.053 Y107.34 E2.9635
G1 X113.053 Y107.075 E2.96791
G1 X112.701 Y106.823 E2.97511
G1 X107.324 Y106.823 E3.06453
G1 X106.947 Y107.075 E3.07207
G0 F7200 X106.947 Y107.275
G0 X107.616 Y107.492
G0 X108.158 Y108.034
;TYPE:SKIN
G1 F548.3 X108.158 Y108.496 E3.08094
G1 X111.842 Y108.496 E3.1517
G1 X111.842 Y108.265 E3.15614
G1 X111.842 Y108.034 E3.16058
G1 X108.158 Y108.034 E3.23134
;MESH:NONMESH
G0 F600 X108.158 Y108.034 Z0.5
G0 F7200 X107.701 Y107.573
;TIME_ELAPSED:12.218241
;LAYER:3
;TYPE:WALL-INNER
;MESH:kung_plu1.stl
G1 F1719.7 X107.701 Y108.907 E3.25352
G1 X112.298 Y108.907 E3.32997
G1 X112.298 Y107.573 E3.35216
G1 X107.701 Y107.573 E3.4286
G0 F7200 X107.301 Y107.254
G1 F1719.7 X107.301 Y109.307 E3.46275
G1 X112.698 Y109.307 E3.5525
G1 X112.698 Y107.324 E3.58548
G1 X112.698 Y107.254 E3.58664
G1 X112.601 Y107.173 E3.58874
G1 X107.398 Y107.173 E3.67527
G1 X107.301 Y107.254 E3.67737
G0 F7200 X106.901 Y107.067
;TYPE:WALL-OUTER
G1 F859.9 X106.901 Y109.707 E3.72127
G1 X113.098 Y109.707 E3.82433
G1 X113.098 Y107.324 E3.86396
G1 X113.098 Y107.067 E3.86823
G1 X112.747 Y106.773 E3.87585
G1 X107.253 Y106.773 E3.96721
G1 X106.901 Y107.067 E3.97484
G0 F7200 X106.901 Y107.267
G0 X107.571 Y107.443
G0 X108.124 Y107.996
;TYPE:SKIN
G1 F529.7 X108.124 Y108.484 E3.98472
G1 X111.875 Y108.484 E4.06067
G1 X111.875 Y108.24 E4.06561
G1 X111.875 Y107.996 E4.07055
G1 X108.124 Y107.996 E4.14649
;MESH:NONMESH
G0 F600 X108.124 Y107.996 Z0.6
G0 F7200 X109.526 Y108.907
;TIME_ELAPSED:15.539658
;LAYER:4
;TYPE:WALL-INNER
;MESH:kung_plu1.stl
G1 F2042.2 X109.806 Y108.946 E4.1512
G1 X110.001 Y109.029 E4.15472
G1 X110.196 Y108.946 E4.15824
G1 X110.475 Y108.907 E4.16293
G1 X112.325 Y108.907 E4.1937
G1 X112.325 Y107.573 E4.21588
G1 X107.674 Y107.573 E4.29323
G1 X107.675 Y108.907 E4.31541
G1 X109.526 Y108.907 E4.34619
G0 F7200 X107.544 Y107.443
G0 X107.274 Y107.231
G1 F2042.2 X107.275 Y109.307 E4.38072
G1 X109.526 Y109.307 E4.41815
G1 X109.828 Y109.387 E4.42335
G1 X110.001 Y109.687 E4.42911
G1 X110.173 Y109.387 E4.43486
G1 X110.475 Y109.307 E4.44005
G1 X112.725 Y109.307 E4.47747
G1 X112.725 Y107.273 E4.5113
G1 X112.665 Y107.173 E4.51323
G1 X107.335 Y107.173 E4.60187
G1 X107.274 Y107.231 E4.60327
G0 F7200 X107.544 Y107.443
G0 X109.627 Y109.007
G0 X109.627 Y109.733
;TYPE:WALL-OUTER
G1 F934.6 X109.764 Y109.907 E4.6073
G1 F863.5 X109.765 Y112.932 E4.66678
G1 X109.944 Y112.981 E4.67043
G1 X110.238 Y112.933 E4.67629
G1 X110.238 Y109.907 E4.7358
G1 F934.6 X110.393 Y109.709 E4.74037
G1 F1021.1 X113.125 Y109.707 E4.7858
G1 X113.125 Y107.273 E4.82628
G1 X113.125 Y107.06 E4.82982
G1 X112.825 Y106.773 E4.83672
G1 X107.175 Y106.773 E4.93068
G1 X106.874 Y107.06 E4.9376
G1 X106.875 Y109.707 E4.98162
G1 X109.565 Y109.707 E5.02635
G1 X109.627 Y109.733 E5.02747
G0 F7200 X109.75 Y109.89
G0 X109.75 Y109.007
G0 X108.098 Y107.996
;TYPE:SKIN
G1 F629 X108.098 Y108.484 E5.03735
G1 F627.7 X109.556 Y108.484 E5.06693
G1 F605.4 X110.013 Y108.555 E5.07666
G1 F604.2 X110.278 Y108.485 E5.08244
G1 F626.4 X111.902 Y108.484 E5.11546
G1 F629 X111.902 Y108.24 E5.1204
G1 X111.902 Y107.996 E5.12534
G1 F626.4 X110.236 Y107.998 E5.15921
G1 F625.2 X109.589 Y107.997 E5.17239
G1 F627.7 X108.098 Y107.996 E5.20264
;MESH:NONMESH
G0 F600 X108.098 Y107.996 Z0.7
G0 F7200 X109.644 Y109.007
G0 X109.644 Y109.021
;TIME_ELAPSED:18.974934
;LAYER:5
;TYPE:WALL-INNER
;MESH:kung_plu1.stl
G1 F2155 X109.903 Y109.216 E5.20803
G1 X110 Y109.458 E5.21237
G1 X110.097 Y109.216 E5.2167
G1 X110.356 Y109.021 E5.22209
G1 X110.69 Y108.907 E5.22796
G1 X112.338 Y108.907 E5.25537
G1 X112.338 Y107.573 E5.27755
G1 X107.661 Y107.573 E5.35533
G1 X107.662 Y108.907 E5.37752
G1 X109.179 Y108.907 E5.40274
G1 X109.644 Y109.021 E5.41071
G0 F7200 X109.614 Y109.492
G1 F2102.4 X109.79 Y109.906 E5.41837
G1 F2057.3 X109.79 Y111.311 E5.44285
G1 F2067.2 X109.791 Y112.716 E5.46721
G1 F2072.1 X110.208 Y112.715 E5.47442
G1 F2067.2 X110.209 Y111.31 E5.49878
G1 F2057.3 X110.21 Y109.905 E5.52325
G1 F2102.4 X110.386 Y109.492 E5.53091
G1 F2155 X110.542 Y109.375 E5.53415
G1 X110.74 Y109.307 E5.53763
G1 X112.738 Y109.307 E5.57086
G1 X112.738 Y107.258 E5.60493
G1 X112.688 Y107.173 E5.60657
G1 X107.312 Y107.173 E5.69598
G1 X107.261 Y107.224 E5.69717
G1 X107.262 Y109.307 E5.73181
G1 X109.179 Y109.307 E5.76369
G1 X109.458 Y109.375 E5.76847
G1 X109.614 Y109.492 E5.77171
G0 F7200 X109.324 Y109.768
;TYPE:WALL-OUTER
G1 F1077.5 X109.38 Y109.906 E5.77419
G1 X109.384 Y112.996 E5.82558
G1 X109.541 Y113.082 E5.82855
G1 X109.76 Y113.126 E5.83227
G1 X110.24 Y113.125 E5.84025
G1 X110.46 Y113.082 E5.84398
G1 X110.616 Y112.997 E5.84693
G1 X110.62 Y109.906 E5.89834
G1 X110.676 Y109.768 E5.90081
G1 X110.786 Y109.709 E5.90289
G1 X113.138 Y109.707 E5.942
G1 X113.138 Y107.258 E5.98273
G1 X113.138 Y107.057 E5.98607
G1 X112.853 Y106.773 E5.99276
G1 X107.147 Y106.773 E6.08766
G1 X106.861 Y107.058 E6.09437
G1 X106.862 Y109.707 E6.13842
G1 X109.179 Y109.707 E6.17695
G1 X109.324 Y109.768 E6.17957
G0 F7200 X109.38 Y109.906
G0 X109.38 Y109.958
G0 X109.971 Y109.057
G0 X110.001 Y108.047
;TYPE:SKIN
G1 F602 X109.179 Y107.996 E6.19796
G1 F663.8 X108.085 Y107.996 E6.22011
G1 X108.085 Y108.484 E6.22999
G1 F662.4 X108.662 Y108.485 E6.2417
G1 F657 X109.239 Y108.487 E6.2535
G1 F597.5 X109.864 Y108.601 E6.26779
G1 F549.7 X110 Y108.699 E6.27189
G1 X110.137 Y108.601 E6.276
G1 F599.7 X110.626 Y108.485 E6.28727
G1 F661 X111.915 Y108.484 E6.31347
G1 F663.8 X111.915 Y108.24 E6.31841
G1 X111.915 Y107.996 E6.32335
G1 F661 X110.584 Y107.998 E6.35041
G1 F599.7 X110.001 Y108.047 E6.36352
;MESH:NONMESH
G0 F600 X110.001 Y108.047 Z0.8
G0 F7200 X109.525 Y109.007
G0 X109.525 Y109.087
;TIME_ELAPSED:22.321450
;LAYER:6
;TYPE:WALL-INNER
;MESH:kung_plu1.stl
G1 F2320.8 X109.766 Y109.324 E6.36914
G1 F2062.9 X110.001 Y109.906 E6.38089
G1 X110.238 Y109.324 E6.39264
G1 F2320.8 X110.478 Y109.087 E6.39825
G1 X110.914 Y108.907 E6.4061
G1 X112.34 Y108.907 E6.42981
G1 X112.34 Y107.573 E6.45199
G1 X107.66 Y107.573 E6.52982
G1 X107.66 Y108.907 E6.55201
G1 X108.951 Y108.907 E6.57348
G1 X109.525 Y109.087 E6.58348
G0 F7200 X109.44 Y109.557
G1 F2320.8 X109.551 Y109.906 E6.58957
G1 X109.556 Y112.752 E6.6369
G1 X109.755 Y112.802 E6.64031
G1 X110.38 Y112.775 E6.65072
G1 X110.446 Y112.763 E6.65183
G1 X110.451 Y109.906 E6.69934
G1 X110.564 Y109.557 E6.70545
G1 X110.708 Y109.415 E6.70881
G1 X110.967 Y109.307 E6.71348
G1 X112.74 Y109.307 E6.74296
G1 X112.74 Y107.223 E6.77762
G1 X112.69 Y107.173 E6.77879
G1 X107.31 Y107.173 E6.86826
G1 X107.26 Y107.223 E6.86944
G1 X107.26 Y109.307 E6.9041
G1 X108.951 Y109.307 E6.93222
G1 X109.296 Y109.415 E6.93823
G1 X109.44 Y109.557 E6.94159
G0 F7200 X109.114 Y109.79
;TYPE:WALL-OUTER
G1 F1160.4 X109.151 Y109.906 E6.94362
G1 X109.155 Y113.005 E6.99515
G1 X109.236 Y113.086 E6.99706
G1 X109.715 Y113.204 E7.00526
G1 X110.557 Y113.168 E7.01928
G1 X110.814 Y113.05 E7.02398
G1 X110.846 Y113.003 E7.02493
G1 X110.851 Y109.906 E7.07643
G1 X110.889 Y109.79 E7.07846
G1 X111.017 Y109.709 E7.08098
G1 X113.14 Y109.707 E7.11628
G1 X113.14 Y107.057 E7.16035
G1 X112.856 Y106.773 E7.16703
G1 X107.144 Y106.773 E7.26202
G1 X106.86 Y107.057 E7.2687
G1 X106.86 Y109.707 E7.31277
G1 X108.951 Y109.707 E7.34755
G1 X109.114 Y109.79 E7.35059
G0 F7200 X109.151 Y109.906
G0 X109.151 Y109.985
G0 X110.001 Y109.906
;TYPE:WALL-INNER
G1 F1864.1 X110.001 Y110.719 E7.36742
G1 F1871.6 X110.001 Y111.532 E7.38419
G1 F1883 X110.001 Y112.345 E7.40085
G0 F7200 X110.226 Y109.079
G0 X110.846 Y108.485
;TYPE:SKIN
G1 F711.9 X111.917 Y108.484 E7.42262
G1 F714.8 X111.917 Y108.24 E7.42756
G1 X111.917 Y107.996 E7.4325
G1 F711.9 X110.804 Y107.998 E7.45513
G1 F728.3 X110.693 Y107.985 E7.45735
G1 F777.1 X109.972 Y107.943 E7.47081
G1 F748.6 X109.097 Y108.002 E7.48776
G1 F707.6 X108.948 Y107.996 E7.49081
G1 F714.8 X108.083 Y107.996 E7.50832
G1 X108.083 Y108.484 E7.5182
G1 F707.6 X109.023 Y108.489 E7.53743
G1 F775.3 X109.746 Y108.776 E7.55195
G1 F870.3 X110.003 Y109.025 E7.5579
G1 X110.261 Y108.775 E7.56388
G1 F782.3 X110.846 Y108.485 E7.57596
G0 F7200 X110.612 Y108.349
G1 F870.3 X110.452 Y108.189 E7.57972
G0 F7200 X110.249 Y108.552
G1 F870.3 X109.85 Y108.153 E7.5891
G0 F7200 X109.639 Y108.507
G1 F870.3 X109.348 Y108.217 E7.59594
;MESH:NONMESH
G0 F600 X109.348 Y108.217 Z0.9
G0 F7200 X110.888 Y108.966
;TIME_ELAPSED:25.700606
;LAYER:7
;TYPE:WALL-INNER
;MESH:kung_plu1.stl
G1 F2371.7 X111.111 Y108.907 E7.59977
G1 X112.34 Y108.907 E7.62021
G1 X112.34 Y107.573 E7.6424
G1 X110.756 Y107.574 E7.66874
G1 X110.089 Y107.692 E7.68
G1 X109.386 Y107.62 E7.69175
G1 X109.188 Y107.573 E7.69514
G1 X107.66 Y107.573 E7.72055
G1 X107.66 Y108.907 E7.74273
G1 X108.771 Y108.907 E7.76121
G1 X109.111 Y108.965 E7.76695
G1 X109.438 Y109.16 E7.77328
G1 X109.644 Y109.417 E7.77876
G1 F2291.5 X109.785 Y109.907 E7.78753
G1 F2216.6 X109.784 Y112.408 E7.83203
G1 X110.211 Y112.398 E7.83963
G1 X110.215 Y109.907 E7.88396
G1 F2291.5 X110.357 Y109.417 E7.89274
G1 F2371.7 X110.563 Y109.16 E7.89822
G1 X110.888 Y108.966 E7.90451
G0 F7200 X109.132 Y109.007
G0 X109.132 Y109.426
G1 F2371.7 X109.295 Y109.613 E7.90864
G1 X109.371 Y109.907 E7.91369
G1 X109.37 Y112.782 E7.9615
G1 X109.591 Y112.826 E7.96525
G1 X110.625 Y112.802 E7.98245
G1 X110.629 Y109.907 E8.03059
G1 X110.706 Y109.613 E8.03565
G1 X110.925 Y109.389 E8.04086
G1 X111.156 Y109.307 E8.04493
G1 X112.74 Y109.307 E8.07127
G1 X112.74 Y107.258 E8.10535
G1 X112.69 Y107.173 E8.10699
G1 X110.72 Y107.174 E8.13975
G1 X110.069 Y107.289 E8.15074
G1 X109.441 Y107.224 E8.16124
G1 X109.244 Y107.173 E8.16463
G1 X107.31 Y107.173 E8.19679
G1 X107.26 Y107.223 E8.19797
G1 X107.26 Y109.307 E8.23262
G1 X108.771 Y109.307 E8.25775
G1 X108.975 Y109.342 E8.26119
G1 X109.132 Y109.426 E8.26415
G0 F7200 X108.971 Y109.827
;TYPE:WALL-OUTER
G1 F1185.9 X108.971 Y112.981 E8.31661
G1 X109.011 Y113.066 E8.31817
G1 X109.144 Y113.145 E8.32074
G1 X109.557 Y113.226 E8.32774
G1 X110.548 Y113.205 E8.34422
G1 X110.87 Y113.138 E8.34969
G1 X111.025 Y113.013 E8.353
G1 X111.029 Y109.907 E8.40466
G1 X111.096 Y109.757 E8.40739
G1 X111.195 Y109.709 E8.40922
G1 X113.14 Y109.707 E8.44156
G1 X113.14 Y107.258 E8.48229
G1 X113.14 Y107.057 E8.48563
G1 X112.856 Y106.773 E8.49231
G1 X110.685 Y106.774 E8.52842
G1 X110.035 Y106.885 E8.53938
G1 X109.497 Y106.828 E8.54838
G1 X109.3 Y106.773 E8.55178
G1 X107.144 Y106.773 E8.58764
G1 X106.86 Y107.057 E8.59432
G1 X106.86 Y109.707 E8.63839
G1 X108.81 Y109.71 E8.67081
G1 X108.971 Y109.827 E8.67412
G0 F7200 X108.971 Y110.027
G0 X109.67 Y110.028
G0 X110.54 Y108.628
;TYPE:SKIN
G1 F678.9 X111.013 Y108.49 E8.68486
G1 F721.6 X111.917 Y108.484 E8.70339
G1 F730.5 X111.917 Y108.24 E8.70833
G1 X111.917 Y107.996 E8.71327
G1 F724.6 X111.388 Y107.997 E8.72407
G1 F712.9 X110.859 Y107.998 E8.73504
G1 F676.3 X110.403 Y108.098 E8.74525
G1 F714.4 X110.133 Y108.094 E8.75084
G1 F790.6 X110.048 Y108.058 E8.75257
G1 F744.3 X109.327 Y108.049 E8.7669
G1 F710.1 X109.075 Y107.996 E8.77226
G1 F723.1 X108.083 Y107.996 E8.79255
G1 F730.5 X108.083 Y108.484 E8.80243
G1 F729 X108.805 Y108.485 E8.81708
G1 F715.8 X109.217 Y108.54 E8.82567
G1 F787.1 X109.69 Y108.875 E8.83656
G1 F814.1 X109.985 Y109.271 E8.84553
G1 F696.2 X110.54 Y108.628 E8.86358
G0 F7200 X110.063 Y108.856
G1 F889.4 X109.991 Y108.928 E8.86527
G0 F7200 X109.714 Y108.639
G1 F889.4 X110.064 Y108.289 E8.8735
G0 F7200 X109.506 Y108.282
G1 F889.4 X109.401 Y108.387 E8.87597
;MESH:NONMESH
G0 F600 X109.401 Y108.387 Z1
G0 F7200 X107.818 Y107.818
;TIME_ELAPSED:29.110898
;LAYER:8
;TYPE:FILL
;MESH:kung_plu1.stl
G1 F2346.9 X108.754 Y108.754 E8.89799
G1 X108.824 Y108.824
G0 F7200 X111.243 Y108.755
G1 F2346.9 X112.178 Y107.82 E8.91998
G1 X112.248 Y107.75
G0 F7200 X109.059 Y109.006
;TYPE:WALL-INNER
G1 F1877.5 X109.362 Y109.232 E8.92626
G1 X109.534 Y109.49 E8.93142
G1 F1539 X109.712 Y109.905 E8.94058
G1 F1306.1 X109.714 Y112.338 E8.99874
G1 F1308.4 X110.287 Y112.336 E9.01242
G1 F1306.1 X110.29 Y109.905 E9.07053
G1 F1539 X110.468 Y109.49 E9.07969
G1 F1877.5 X110.639 Y109.232 E9.08484
G1 X110.9 Y109.028 E9.09035
G1 X111.288 Y108.907 E9.09711
G1 X112.34 Y108.907 E9.1146
G1 X112.34 Y107.573 E9.13679
G1 X111.068 Y107.573 E9.15794
G1 X110.595 Y107.721 E9.16618
G1 X110.019 Y107.784 E9.17582
G1 X109.346 Y107.71 E9.18708
G1 X108.922 Y107.574 E9.19448
G1 X107.66 Y107.573 E9.21547
G1 X107.66 Y108.907 E9.23766
G1 X108.735 Y108.912 E9.25553
G1 X109.059 Y109.006 E9.26114
G0 F7200 X109.067 Y109.502
G1 F1877.5 X109.17 Y109.657 E9.26424
G1 X109.224 Y109.906 E9.26848
G1 X109.227 Y112.786 E9.31637
G1 X109.42 Y112.826 E9.31965
G1 X110.774 Y112.823 E9.34217
G1 X110.778 Y109.906 E9.39068
G1 X110.832 Y109.657 E9.39491
G1 X110.934 Y109.502 E9.398
G1 X111.091 Y109.379 E9.40132
G1 X111.304 Y109.311 E9.40503
G1 X112.74 Y109.307 E9.42891
G1 X112.74 Y107.258 E9.46299
G1 X112.69 Y107.173 E9.46463
G1 X111.005 Y107.173 E9.49265
G1 X110.562 Y107.317 E9.5004
G1 X110.048 Y107.39 E9.50903
G1 X109.423 Y107.317 E9.5195
